;FLAVOR:Marlin
;TIME:6814
;Filament used: 6.7601m
;Layer height: 0.2
;MINX:60.933
;MINY:62.802
;MINZ:0.2
;MAXX:164.075
;MAXY:162.202
;MAXZ:13.2
;Generated with Creality Slicer 4.8.2-291
M140 S85
M105
M190 S85
M104 S225
M105
M109 S225
M82 ;absolute extrusion mode

G28 ;Home

G92 E0 ;Reset Extruder
G1 Z2.0 F3000 ;Move Z Axis up
G1 X10.1 Y20 Z0.28 F5000.0 ;Move to start position
G1 X10.1 Y200.0 Z0.28 F1500.0 E15 ;Draw the first line
G1 X10.4 Y200.0 Z0.28 F5000.0 ;Move to side a little
G1 X10.4 Y20 Z0.28 F1500.0 E30 ;Draw the second line
G92 E0 ;Reset Extruder
G1 Z2.0 F3000 ;Move Z Axis up

G92 E0
G92 E0
G1 F6000 E-4.2
;LAYER_COUNT:66
;LAYER:0
M107
G0 F1200 X78.674 Y67.517 Z0.2
;TYPE:SKIRT
G1 F6000 E0
G1 F2400 X78.967 Y67.212 E0.01407
G1 X79.502 Y66.665 E0.03952
G1 X80.015 Y66.154 E0.0636
G1 X80.205 Y65.989 E0.07197
G1 X80.814 Y65.533 E0.09727
G1 X81.338 Y65.152 E0.11882
G1 X81.865 Y64.78 E0.14028
G1 X82.085 Y64.647 E0.14883
G1 X82.83 Y64.268 E0.17663
G1 X83.377 Y64.001 E0.19687
G1 X83.97 Y63.721 E0.21868
G1 X84.217 Y63.626 E0.22749
G1 X85.234 Y63.318 E0.26283
G1 X86.165 Y63.054 E0.29501
G1 X86.477 Y62.995 E0.30558
G1 X87.597 Y62.884 E0.34301
G1 X88.293 Y62.829 E0.36623
G1 X88.401 Y62.823 E0.36983
G1 X89.5 Y62.802 E0.40639
G1 X135.663 Y62.802 E1.94178
G1 X136.417 Y62.813 E1.96686
G1 X136.591 Y62.821 E1.97265
G1 X137.047 Y62.853 E1.98785
G1 X137.742 Y62.91 E2.01105
G1 X138.401 Y62.972 E2.03306
G1 X138.712 Y63.029 E2.04358
G1 X140.108 Y63.416 E2.09176
G1 X140.777 Y63.615 E2.11497
G1 X141.021 Y63.707 E2.12365
G1 X141.244 Y63.811 E2.13183
G1 X141.493 Y63.932 E2.14104
G1 X142.271 Y64.319 E2.16994
G1 X142.89 Y64.634 E2.19304
G1 X143.11 Y64.766 E2.20157
G1 X143.769 Y65.23 E2.22838
G1 X144.224 Y65.56 E2.24708
G1 X144.785 Y65.98 E2.27038
G1 X144.978 Y66.147 E2.27887
G1 X145.623 Y66.792 E2.30921
G1 X146.437 Y67.639 E2.34828
G1 X146.601 Y67.836 E2.35681
G1 X146.747 Y68.04 E2.36515
G1 X147.007 Y68.421 E2.38049
G1 X147.751 Y69.532 E2.42497
G1 X147.903 Y69.809 E2.43548
G1 X148.355 Y70.84 E2.47292
G1 X148.615 Y71.466 E2.49546
G1 X148.654 Y71.567 E2.49906
G1 X149.035 Y72.669 E2.53785
G1 X163.311 Y116.605 E4.07437
G1 X163.481 Y117.155 E4.09352
G1 X163.51 Y117.261 E4.09717
G1 X163.803 Y118.465 E4.13839
G1 X163.852 Y118.656 E4.14494
G1 X163.969 Y119.179 E4.16277
G1 X164.01 Y119.495 E4.17337
G1 X164.056 Y120.576 E4.20935
G1 X164.068 Y121.034 E4.22459
G1 X164.075 Y121.748 E4.24834
G1 X164.059 Y122.008 E4.257
G1 X163.887 Y123.268 E4.2993
G1 X163.773 Y123.979 E4.32325
G1 X163.717 Y124.222 E4.33155
G1 X163.507 Y124.904 E4.35528
G1 X163.311 Y125.509 E4.37643
G1 X163.085 Y126.177 E4.39989
G1 X162.984 Y126.417 E4.40855
G1 X162.573 Y127.224 E4.43867
G1 X162.019 Y128.264 E4.47786
G1 X161.829 Y128.555 E4.48942
G1 X161.492 Y128.995 E4.50785
G1 X160.584 Y130.151 E4.55674
G1 X160.379 Y130.371 E4.56675
G1 X160.099 Y130.624 E4.5793
G1 X159.34 Y131.276 E4.61258
G1 X158.956 Y131.598 E4.62925
G1 X158.038 Y132.291 E4.6675
G1 X120.633 Y159.467 E6.20528
G1 X120.186 Y159.783 E6.22349
G1 X120.092 Y159.845 E6.22723
G1 X119.009 Y160.513 E6.26956
G1 X118.871 Y160.6 E6.27498
G1 X118.416 Y160.868 E6.29254
G1 X118.131 Y161.003 E6.30303
G1 X117.112 Y161.384 E6.33922
G1 X116.743 Y161.526 E6.35237
G1 X116.107 Y161.749 E6.37478
G1 X115.718 Y161.845 E6.38811
G1 X115.658 Y161.857 E6.39015
G1 X114.483 Y162.059 E6.4298
G1 X113.813 Y162.166 E6.45237
G1 X113.556 Y162.189 E6.46095
G1 X112.723 Y162.201 E6.48866
G1 X112.136 Y162.202 E6.50818
G1 X111.482 Y162.193 E6.52993
G1 X111.226 Y162.171 E6.53848
G1 X110.37 Y162.035 E6.56731
G1 X109.174 Y161.823 E6.60771
G1 X108.927 Y161.761 E6.61618
G1 X108.747 Y161.702 E6.62248
G1 X108.25 Y161.523 E6.64005
G1 X107.003 Y161.067 E6.68421
G1 X106.716 Y160.932 E6.69476
G1 X105.723 Y160.354 E6.73297
G1 X105.482 Y160.208 E6.74234
G1 X105.067 Y159.948 E6.75863
G1 X104.099 Y159.273 E6.79788
G1 X78.055 Y140.348 E7.86866
G1 X66.716 Y132.111 E8.3348
G1 X66.269 Y131.776 E8.35338
G1 X66.184 Y131.709 E8.35698
G1 X65.247 Y130.915 E8.39783
G1 X65.106 Y130.797 E8.40394
G1 X64.692 Y130.432 E8.4223
G1 X64.473 Y130.202 E8.43286
G1 X63.704 Y129.235 E8.47395
G1 X63.569 Y129.069 E8.48107
G1 X63.137 Y128.504 E8.50473
G1 X62.995 Y128.287 E8.51335
G1 X62.897 Y128.111 E8.52005
G1 X62.318 Y127.012 E8.56137
G1 X62.033 Y126.455 E8.58218
G1 X61.932 Y126.217 E8.59078
G1 X61.67 Y125.451 E8.6177
G1 X61.473 Y124.843 E8.63896
G1 X61.287 Y124.239 E8.65998
G1 X61.229 Y123.992 E8.66842
G1 X61.094 Y123.136 E8.69724
G1 X60.951 Y122.118 E8.73143
G1 X60.933 Y121.86 E8.74003
G1 X60.937 Y120.916 E8.77143
G1 X60.951 Y120.242 E8.79385
G1 X60.976 Y119.558 E8.81662
G1 X61.014 Y119.25 E8.82694
G1 X61.08 Y118.944 E8.83735
G1 X61.328 Y117.892 E8.8733
G1 X61.446 Y117.426 E8.88929
G1 X61.78 Y116.326 E8.92753
G1 X76.049 Y72.411 E10.46331
G1 X76.253 Y71.813 E10.48433
G1 X76.291 Y71.713 E10.48789
G1 X76.798 Y70.474 E10.53241
G1 X77.049 Y69.9 E10.55325
G1 X77.196 Y69.628 E10.56353
G1 X77.972 Y68.456 E10.61028
G1 X78.388 Y67.854 E10.63462
G1 X78.674 Y67.517 E10.64932
G0 F1200 X78.969 Y67.787
G1 F2400 X79.254 Y67.491 E10.66299
G1 X79.784 Y66.948 E10.68823
G1 X80.297 Y66.437 E10.71231
G1 X80.445 Y66.309 E10.71882
G1 X81.049 Y65.856 E10.74393
G1 X81.569 Y65.479 E10.76529
G1 X82.096 Y65.107 E10.78675
G1 X82.267 Y65.004 E10.79339
G1 X83.005 Y64.628 E10.82093
G1 X83.548 Y64.363 E10.84103
G1 X84.141 Y64.083 E10.86284
G1 X84.333 Y64.009 E10.86969
G1 X85.343 Y63.703 E10.90479
G1 X86.274 Y63.439 E10.93697
G1 X86.517 Y63.393 E10.9452
G1 X87.629 Y63.282 E10.98237
G1 X88.325 Y63.227 E11.00559
G1 X88.408 Y63.223 E11.00835
G1 X89.507 Y63.202 E11.04491
G1 X135.658 Y63.202 E12.5799
G1 X136.401 Y63.213 E12.60461
G1 X136.564 Y63.22 E12.61004
G1 X137.014 Y63.252 E12.62505
G1 X137.704 Y63.308 E12.64807
G1 X138.363 Y63.37 E12.67009
G1 X138.605 Y63.415 E12.67827
G1 X139.994 Y63.799 E12.7262
G1 X140.663 Y63.998 E12.74942
G1 X141.045 Y64.159 E12.76321
G1 X141.315 Y64.29 E12.77319
G1 X142.09 Y64.675 E12.80197
G1 X142.709 Y64.99 E12.82507
G1 X142.88 Y65.093 E12.83171
G1 X143.534 Y65.554 E12.85832
G1 X143.984 Y65.88 E12.87681
G1 X144.545 Y66.3 E12.90011
G1 X144.695 Y66.43 E12.90672
G1 X145.334 Y67.069 E12.93677
G1 X146.148 Y67.916 E12.97584
G1 X146.396 Y68.236 E12.98931
G1 X146.674 Y68.644 E13.00573
G1 X147.418 Y69.755 E13.0502
G1 X147.537 Y69.97 E13.05838
G1 X147.986 Y70.993 E13.09553
G1 X148.246 Y71.619 E13.11808
G1 X148.276 Y71.698 E13.12089
G1 X148.654 Y72.792 E13.15939
G1 X162.929 Y116.724 E14.69577
G1 X163.099 Y117.274 E14.71492
G1 X163.121 Y117.356 E14.71774
G1 X163.409 Y118.539 E14.75824
G1 X163.461 Y118.743 E14.76524
G1 X163.578 Y119.266 E14.78307
G1 X163.611 Y119.512 E14.79132
G1 X163.657 Y120.586 E14.82708
G1 X163.668 Y121.038 E14.84212
G1 X163.675 Y121.752 E14.86586
G1 X163.662 Y121.954 E14.8726
G1 X163.492 Y123.205 E14.91459
G1 X163.378 Y123.916 E14.93854
G1 X163.334 Y124.105 E14.94499
G1 X163.127 Y124.781 E14.96851
G1 X162.932 Y125.381 E14.98949
G1 X162.706 Y126.049 E15.01294
G1 X162.628 Y126.235 E15.01965
G1 X162.22 Y127.036 E15.04955
G1 X161.666 Y128.076 E15.08874
G1 X161.505 Y128.32 E15.09847
G1 X161.177 Y128.748 E15.1164
G1 X160.269 Y129.904 E15.16529
G1 X160.11 Y130.075 E15.17306
G1 X159.839 Y130.321 E15.18523
G1 X159.085 Y130.968 E15.21828
G1 X158.714 Y131.279 E15.23438
G1 X157.803 Y131.968 E15.27237
G1 X120.402 Y159.14 E16.80996
G1 X119.955 Y159.456 E16.82817
G1 X119.882 Y159.504 E16.83108
G1 X118.668 Y160.255 E16.87856
G1 X118.213 Y160.523 E16.89612
G1 X117.991 Y160.629 E16.9043
G1 X116.968 Y161.011 E16.94062
G1 X116.61 Y161.148 E16.95337
G1 X115.974 Y161.371 E16.97579
G1 X115.637 Y161.454 E16.98733
G1 X114.437 Y161.662 E17.02784
G1 X113.75 Y161.771 E17.05097
G1 X113.55 Y161.789 E17.05765
G1 X112.723 Y161.801 E17.08516
G1 X112.142 Y161.802 E17.10448
G1 X111.488 Y161.793 E17.12624
G1 X111.289 Y161.776 E17.13288
G1 X110.44 Y161.642 E17.16147
G1 X109.244 Y161.43 E17.20187
G1 X108.92 Y161.338 E17.21307
G1 X108.387 Y161.147 E17.2319
G1 X107.14 Y160.691 E17.27606
G1 X106.917 Y160.586 E17.28426
G1 X105.929 Y160.011 E17.32228
G1 X105.696 Y159.87 E17.33134
G1 X105.296 Y159.62 E17.34703
G1 X104.334 Y158.95 E17.38602
G1 X78.29 Y140.025 E18.45679
G1 X66.955 Y131.791 E18.92277
G1 X66.508 Y131.456 E18.94135
G1 X66.443 Y131.404 E18.94412
G1 X65.506 Y130.61 E18.98497
G1 X65.37 Y130.497 E18.99085
G1 X64.956 Y130.132 E19.0092
G1 X64.786 Y129.953 E19.01742
G1 X64.017 Y128.986 E19.05851
G1 X63.887 Y128.826 E19.06536
G1 X63.455 Y128.261 E19.08902
G1 X63.266 Y127.952 E19.10107
G1 X62.674 Y126.83 E19.14326
G1 X62.389 Y126.273 E19.16407
G1 X62.31 Y126.087 E19.17079
G1 X62.051 Y125.327 E19.1975
G1 X61.855 Y124.725 E19.21856
G1 X61.669 Y124.121 E19.23958
G1 X61.624 Y123.929 E19.24613
G1 X61.49 Y123.081 E19.27469
G1 X61.347 Y122.063 E19.30888
G1 X61.333 Y121.862 E19.31558
G1 X61.337 Y120.924 E19.34678
G1 X61.351 Y120.257 E19.36897
G1 X61.376 Y119.573 E19.39173
G1 X61.406 Y119.333 E19.39978
G1 X61.469 Y119.036 E19.40988
G1 X61.715 Y117.993 E19.44552
G1 X61.829 Y117.542 E19.46099
G1 X62.161 Y116.449 E19.49898
G1 X76.428 Y72.54 E21.03456
G1 X76.632 Y71.942 E21.05558
G1 X76.661 Y71.864 E21.05834
G1 X77.164 Y70.634 E21.10254
G1 X77.415 Y70.06 E21.12338
G1 X77.53 Y69.849 E21.13137
G1 X78.301 Y68.683 E21.17786
G1 X78.717 Y68.081 E21.2022
G1 X78.969 Y67.787 E21.21508
G0 F1200 X79.264 Y68.057
G1 F2400 X79.54 Y67.771 E21.2283
G1 X80.066 Y67.232 E21.25335
G1 X80.579 Y66.721 E21.27743
G1 X80.685 Y66.629 E21.2821
G1 X81.284 Y66.18 E21.307
G1 X81.799 Y65.806 E21.32817
G1 X82.326 Y65.434 E21.34962
G1 X82.449 Y65.36 E21.3544
G1 X83.181 Y64.987 E21.38172
G1 X83.719 Y64.725 E21.40163
G1 X84.312 Y64.445 E21.42344
G1 X84.449 Y64.392 E21.42832
G1 X85.452 Y64.088 E21.46318
G1 X86.383 Y63.824 E21.49537
G1 X86.557 Y63.791 E21.50126
G1 X87.66 Y63.681 E21.53813
G1 X88.356 Y63.626 E21.56135
G1 X88.416 Y63.623 E21.56335
G1 X89.515 Y63.602 E21.59991
G1 X135.652 Y63.602 E23.13443
G1 X136.385 Y63.613 E23.15881
G1 X136.536 Y63.619 E23.16384
G1 X136.981 Y63.65 E23.17867
G1 X137.667 Y63.706 E23.20157
G1 X138.326 Y63.768 E23.22358
G1 X138.499 Y63.8 E23.22943
G1 X139.88 Y64.183 E23.2771
G1 X140.549 Y64.382 E23.30031
G1 X140.877 Y64.522 E23.31218
G1 X141.137 Y64.648 E23.32178
G1 X141.909 Y65.032 E23.35046
G1 X142.528 Y65.347 E23.37356
G1 X142.65 Y65.42 E23.37829
G1 X143.3 Y65.878 E23.40474
G1 X143.744 Y66.2 E23.42298
G1 X144.305 Y66.62 E23.44629
G1 X144.413 Y66.713 E23.45103
G1 X145.046 Y67.346 E23.4808
G1 X145.86 Y68.193 E23.51988
G1 X146.071 Y68.469 E23.53143
G1 X146.342 Y68.867 E23.54745
G1 X147.086 Y69.978 E23.59192
G1 X147.17 Y70.131 E23.59772
G1 X147.617 Y71.146 E23.63461
G1 X147.877 Y71.772 E23.65716
G1 X148.274 Y72.916 E23.69743
G1 X162.546 Y116.842 E25.2336
G1 X162.733 Y117.451 E25.25479
G1 X163.022 Y118.64 E25.29549
G1 X163.071 Y118.831 E25.30204
G1 X163.188 Y119.354 E25.31987
G1 X163.211 Y119.529 E25.32574
G1 X163.257 Y120.596 E25.36126
G1 X163.268 Y121.042 E25.3761
G1 X163.275 Y121.756 E25.39985
G1 X163.266 Y121.9 E25.40465
G1 X163.097 Y123.141 E25.4463
G1 X162.983 Y123.852 E25.47025
G1 X162.952 Y123.987 E25.47486
G1 X162.746 Y124.657 E25.49817
G1 X162.553 Y125.252 E25.51898
G1 X162.327 Y125.92 E25.54243
G1 X162.271 Y126.054 E25.54726
G1 X161.867 Y126.848 E25.57689
G1 X161.313 Y127.888 E25.61609
G1 X161.165 Y128.108 E25.62491
G1 X160.862 Y128.501 E25.64141
G1 X159.954 Y129.657 E25.6903
G1 X159.841 Y129.779 E25.69583
G1 X159.578 Y130.017 E25.70763
G1 X158.83 Y130.66 E25.74044
G1 X158.473 Y130.96 E25.75595
G1 X157.568 Y131.644 E25.79368
G1 X120.171 Y158.814 E27.33113
G1 X119.724 Y159.13 E27.34933
G1 X119.672 Y159.164 E27.3514
G1 X118.565 Y159.847 E27.39466
G1 X118.465 Y159.911 E27.39861
G1 X118.01 Y160.179 E27.41617
G1 X117.852 Y160.254 E27.42199
G1 X116.823 Y160.638 E27.45852
G1 X116.478 Y160.771 E27.47082
G1 X115.842 Y160.994 E27.49324
G1 X115.555 Y161.062 E27.50305
G1 X114.357 Y161.269 E27.54348
G1 X113.687 Y161.376 E27.56605
G1 X113.544 Y161.389 E27.57082
G1 X112.722 Y161.401 E27.59817
G1 X112.147 Y161.402 E27.61729
G1 X111.493 Y161.393 E27.63905
G1 X111.351 Y161.381 E27.64379
G1 X110.509 Y161.248 E27.67214
G1 X109.313 Y161.036 E27.71254
G1 X109.045 Y160.958 E27.72182
G1 X108.525 Y160.771 E27.7402
G1 X107.278 Y160.315 E27.78436
G1 X107.118 Y160.24 E27.79024
G1 X106.136 Y159.668 E27.82804
G1 X105.909 Y159.532 E27.83684
G1 X105.524 Y159.292 E27.85193
G1 X104.569 Y158.626 E27.89065
G1 X78.525 Y139.701 E28.96143
G1 X67.195 Y131.471 E29.42719
G1 X66.748 Y131.136 E29.44577
G1 X66.702 Y131.099 E29.44773
G1 X65.774 Y130.313 E29.48818
G1 X65.635 Y130.197 E29.4942
G1 X65.221 Y129.832 E29.51256
G1 X65.099 Y129.704 E29.51844
G1 X64.33 Y128.737 E29.55953
G1 X64.205 Y128.583 E29.56613
G1 X63.773 Y128.018 E29.58978
G1 X63.615 Y127.758 E29.5999
G1 X63.03 Y126.648 E29.64164
G1 X62.745 Y126.091 E29.66245
G1 X62.689 Y125.958 E29.66725
G1 X62.431 Y125.203 E29.69378
G1 X62.237 Y124.607 E29.71463
G1 X62.051 Y124.003 E29.73565
G1 X62.019 Y123.866 E29.74033
G1 X61.886 Y123.025 E29.76865
G1 X61.743 Y122.007 E29.80284
G1 X61.733 Y121.864 E29.80761
G1 X61.737 Y120.932 E29.83861
G1 X61.751 Y120.271 E29.8606
G1 X61.776 Y119.587 E29.88336
G1 X61.797 Y119.416 E29.88909
G1 X61.859 Y119.127 E29.89892
G1 X62.102 Y118.095 E29.93419
G1 X62.212 Y117.658 E29.94917
G1 X62.541 Y116.573 E29.98688
G1 X76.807 Y72.669 E31.52229
G1 X77.031 Y72.016 E31.54525
G1 X77.531 Y70.794 E31.58917
G1 X77.782 Y70.22 E31.61
G1 X77.864 Y70.07 E31.61569
G1 X78.63 Y68.911 E31.6619
G1 X79.046 Y68.309 E31.68624
G1 X79.264 Y68.057 E31.69732
G0 F1200 X79.559 Y68.328
G1 F2400 X79.826 Y68.05 E31.71014
G1 X80.349 Y67.515 E31.73502
G1 X80.862 Y67.004 E31.75911
G1 X80.925 Y66.949 E31.76189
G1 X81.519 Y66.504 E31.78657
G1 X82.03 Y66.133 E31.80758
G1 X82.557 Y65.761 E31.82903
G1 X82.63 Y65.716 E31.83188
G1 X83.356 Y65.347 E31.85897
G1 X83.89 Y65.086 E31.87874
G1 X84.483 Y64.806 E31.90055
G1 X84.565 Y64.775 E31.90347
G1 X85.561 Y64.473 E31.93808
G1 X86.492 Y64.209 E31.97027
G1 X86.596 Y64.189 E31.97379
G1 X87.692 Y64.08 E32.01042
G1 X88.424 Y64.023 E32.03484
G1 X89.523 Y64.002 E32.0714
G1 X135.646 Y64.002 E33.60546
G1 X136.368 Y64.012 E33.62948
G1 X136.508 Y64.018 E33.63414
G1 X136.949 Y64.049 E33.64884
G1 X137.629 Y64.105 E33.67153
G1 X138.288 Y64.167 E33.69355
G1 X138.392 Y64.186 E33.69707
G1 X139.766 Y64.566 E33.74448
G1 X140.435 Y64.765 E33.7677
G1 X140.708 Y64.885 E33.77761
G1 X140.959 Y65.007 E33.7869
G1 X141.727 Y65.388 E33.81541
G1 X142.346 Y65.703 E33.83851
G1 X142.419 Y65.747 E33.84135
G1 X143.065 Y66.202 E33.86763
G1 X143.505 Y66.521 E33.8857
G1 X144.066 Y66.941 E33.90901
G1 X144.13 Y66.996 E33.91182
G1 X144.758 Y67.623 E33.94133
G1 X145.572 Y68.47 E33.98041
G1 X145.746 Y68.703 E33.99008
G1 X146.01 Y69.089 E34.00563
G1 X146.754 Y70.2 E34.0501
G1 X146.804 Y70.292 E34.05359
G1 X147.247 Y71.3 E34.09021
G1 X147.52 Y71.96 E34.11396
G1 X147.894 Y73.04 E34.15198
G1 X162.164 Y116.96 E35.68793
G1 X162.344 Y117.545 E35.70829
G1 X162.635 Y118.74 E35.7492
G1 X162.681 Y118.918 E35.75531
G1 X162.798 Y119.441 E35.77314
G1 X162.811 Y119.546 E35.77666
G1 X162.857 Y120.607 E35.81198
G1 X162.868 Y121.046 E35.82658
G1 X162.875 Y121.76 E35.85033
G1 X162.87 Y121.847 E35.85323
G1 X162.702 Y123.078 E35.89455
G1 X162.588 Y123.789 E35.9185
G1 X162.57 Y123.87 E35.92126
G1 X162.366 Y124.534 E35.94437
G1 X162.174 Y125.124 E35.965
G1 X161.948 Y125.792 E35.98846
G1 X161.915 Y125.872 E35.99134
G1 X161.514 Y126.66 E36.02074
G1 X160.96 Y127.7 E36.05994
G1 X160.848 Y127.864 E36.06654
G1 X160.548 Y128.254 E36.08291
G1 X159.64 Y129.41 E36.1318
G1 X159.572 Y129.483 E36.13512
G1 X159.317 Y129.714 E36.14656
G1 X158.575 Y130.352 E36.17911
G1 X158.262 Y130.616 E36.19273
G1 X158.232 Y130.641 E36.19403
G1 X157.333 Y131.32 E36.2315
G1 X119.94 Y158.487 E37.76878
G1 X119.462 Y158.824 E37.78823
G1 X118.262 Y159.566 E37.83516
G1 X117.807 Y159.834 E37.85272
G1 X117.712 Y159.879 E37.85622
G1 X116.679 Y160.265 E37.89289
G1 X116.346 Y160.393 E37.90476
G1 X115.71 Y160.616 E37.92718
G1 X115.454 Y160.674 E37.93591
G1 X114.294 Y160.874 E37.97506
G1 X113.624 Y160.981 E37.99762
G1 X113.538 Y160.989 E38.0005
G1 X112.721 Y161.001 E38.02767
