;FLAVOR:Marlin
;TIME:1183
;Filament used: 0.99906m
;Layer height: 0.2
;MINX:87.235
;MINY:87.235
;MINZ:0.24
;MAXX:138.164
;MAXY:138.164
;MAXZ:20.49
;Generated with Creality Slicer 4.8.2-291
M140 S85
M105
M190 S85
M104 S225
M105
M109 S225
M82 ;absolute extrusion mode

G28 ;Home

G92 E0 ;Reset Extruder
G1 Z2.0 F3000 ;Move Z Axis up
G1 X10.1 Y20 Z0.28 F5000.0 ;Move to start position
G1 X10.1 Y200.0 Z0.28 F1500.0 E15 ;Draw the first line
G1 X10.4 Y200.0 Z0.28 F5000.0 ;Move to side a little
G1 X10.4 Y20 Z0.28 F1500.0 E30 ;Draw the second line
G92 E0 ;Reset Extruder
G1 Z2.0 F3000 ;Move Z Axis up

G92 E0
G92 E0
G1 F2700 E-2
;LAYER_COUNT:100
;LAYER:-6
M107
G0 F12000 X92.702 Y92.456 Z0.24
;TYPE:SUPPORT-INTERFACE
G1 F2700 E0
G1 F1800 X92.827 Y92.336 E0.01383
G1 X93.498 Y91.733 E0.08584
G1 X93.614 Y91.637 E0.09786
G1 X94.326 Y91.087 E0.16968
G1 X94.485 Y90.974 E0.18525
G1 X95.223 Y90.484 E0.25596
G1 X95.349 Y90.408 E0.26771
G1 X96.143 Y89.962 E0.34041
G1 X96.293 Y89.884 E0.3539
G1 X97.108 Y89.501 E0.42578
G1 X97.251 Y89.441 E0.43816
G1 X98.11 Y89.112 E0.51159
G1 X98.26 Y89.06 E0.52426
G1 X99.11 Y88.805 E0.5951
G1 X99.283 Y88.758 E0.60941
G1 X100.178 Y88.558 E0.68261
G1 X100.308 Y88.535 E0.69315
G1 X101.213 Y88.401 E0.76618
G1 X101.382 Y88.383 E0.77975
G1 X102.271 Y88.317 E0.85091
G1 X102.455 Y88.308 E0.86561
G1 X102.959 Y88.3 E0.90585
G1 X122.502 Y88.3 E2.46586
G1 X123.503 Y88.336 E2.54581
G1 X123.626 Y88.345 E2.55566
G1 X124.557 Y88.448 E2.63043
G1 X124.704 Y88.469 E2.64228
G1 X125.59 Y88.632 E2.71419
G1 X125.746 Y88.667 E2.72695
G1 X126.609 Y88.892 E2.79814
G1 X126.777 Y88.943 E2.81216
G1 X127.629 Y89.234 E2.88403
G1 X127.806 Y89.301 E2.89913
G1 X128.598 Y89.638 E2.96784
G1 X128.787 Y89.726 E2.98448
G1 X129.581 Y90.134 E3.05574
G1 X129.698 Y90.201 E3.0665
G1 X130.477 Y90.675 E3.13929
G1 X130.628 Y90.775 E3.15375
G1 X131.346 Y91.288 E3.22419
G1 X131.487 Y91.398 E3.23847
G1 X132.178 Y91.97 E3.31007
G1 X132.294 Y92.075 E3.32256
G1 X132.937 Y92.694 E3.39381
G1 X133.074 Y92.837 E3.40961
G1 X133.672 Y93.504 E3.48112
G1 X133.755 Y93.604 E3.4915
G1 X134.322 Y94.336 E3.56541
G1 X134.416 Y94.468 E3.57834
G1 X134.916 Y95.221 E3.65049
G1 X134.992 Y95.347 E3.66224
G1 X135.444 Y96.151 E3.73586
G1 X135.514 Y96.287 E3.74807
G1 X135.897 Y97.105 E3.82017
G1 X135.958 Y97.246 E3.83244
G1 X136.29 Y98.113 E3.90655
G1 X136.336 Y98.249 E3.91801
G1 X136.602 Y99.129 E3.99139
G1 X136.64 Y99.275 E4.00343
G1 X136.84 Y100.167 E4.0764
G1 X136.865 Y100.306 E4.08768
G1 X136.998 Y101.205 E4.16022
G1 X137.016 Y101.367 E4.17323
G1 X137.083 Y102.269 E4.24543
G1 X137.092 Y102.453 E4.26014
G1 X137.1 Y102.955 E4.30021
G1 X137.1 Y122.486 E5.85926
G1 X137.064 Y123.492 E5.93962
G1 X137.054 Y123.627 E5.95042
G1 X136.952 Y124.544 E6.02407
G1 X136.927 Y124.719 E6.03818
G1 X136.765 Y125.597 E6.10945
G1 X136.735 Y125.731 E6.12041
G1 X136.504 Y126.616 E6.19343
G1 X136.452 Y126.788 E6.20777
G1 X136.176 Y127.6 E6.27623
G1 X136.096 Y127.809 E6.29409
G1 X135.761 Y128.599 E6.36259
G1 X135.68 Y128.774 E6.37798
G1 X135.265 Y129.582 E6.45049
G1 X135.198 Y129.699 E6.46125
G1 X134.724 Y130.478 E6.53404
G1 X134.624 Y130.629 E6.5485
G1 X134.113 Y131.343 E6.61859
G1 X134 Y131.491 E6.63345
G1 X133.424 Y132.182 E6.70526
G1 X133.323 Y132.295 E6.71736
G1 X132.698 Y132.944 E6.78928
G1 X132.573 Y133.064 E6.80311
G1 X131.903 Y133.666 E6.87501
G1 X131.786 Y133.763 E6.88714
G1 X131.074 Y134.313 E6.95896
G1 X130.915 Y134.426 E6.97453
G1 X130.177 Y134.916 E7.04524
G1 X130.051 Y134.992 E7.05699
G1 X129.257 Y135.438 E7.12969
G1 X129.106 Y135.516 E7.14325
G1 X128.292 Y135.899 E7.21506
G1 X128.149 Y135.959 E7.22744
G1 X127.29 Y136.288 E7.30087
G1 X127.14 Y136.34 E7.31354
G1 X126.29 Y136.595 E7.38438
G1 X126.117 Y136.642 E7.39869
G1 X125.222 Y136.842 E7.47189
G1 X125.092 Y136.865 E7.48243
G1 X124.187 Y136.999 E7.55546
G1 X124.019 Y137.017 E7.56895
G1 X123.129 Y137.083 E7.64019
G1 X122.945 Y137.092 E7.65489
G1 X122.44 Y137.1 E7.69521
G1 X102.897 Y137.099 E9.25521
G1 X101.896 Y137.063 E9.33517
G1 X101.773 Y137.054 E9.34501
G1 X100.856 Y136.952 E9.41867
G1 X100.681 Y136.927 E9.43278
G1 X99.792 Y136.763 E9.50494
G1 X99.669 Y136.735 E9.51501
G1 X98.775 Y136.501 E9.58877
G1 X98.612 Y136.452 E9.60236
G1 X97.77 Y136.166 E9.67334
G1 X97.604 Y136.102 E9.68755
G1 X96.801 Y135.761 E9.75718
G1 X96.612 Y135.673 E9.77383
G1 X95.818 Y135.265 E9.84509
G1 X95.701 Y135.198 E9.85585
G1 X94.922 Y134.724 E9.92864
G1 X94.771 Y134.624 E9.94309
G1 X94.057 Y134.113 E10.01318
G1 X93.909 Y134 E10.02805
G1 X93.218 Y133.424 E10.09985
G1 X93.105 Y133.323 E10.11195
G1 X92.456 Y132.698 E10.18388
G1 X92.336 Y132.573 E10.19771
G1 X91.733 Y131.902 E10.26972
G1 X91.636 Y131.784 E10.28191
G1 X91.078 Y131.062 E10.35475
G1 X90.974 Y130.915 E10.36913
G1 X90.481 Y130.172 E10.4403
G1 X90.408 Y130.051 E10.45158
G1 X89.956 Y129.246 E10.52528
G1 X89.884 Y129.107 E10.53778
G1 X89.487 Y128.261 E10.61237
G1 X89.441 Y128.149 E10.62204
G1 X89.112 Y127.29 E10.69546
G1 X89.055 Y127.125 E10.7094
G1 X88.805 Y126.29 E10.77898
G1 X88.758 Y126.117 E10.79329
G1 X88.557 Y125.216 E10.86698
G1 X88.535 Y125.092 E10.87703
G1 X88.4 Y124.178 E10.95078
G1 X88.383 Y124.018 E10.96362
G1 X88.317 Y123.126 E11.03502
G1 X88.308 Y122.945 E11.04949
G1 X88.3 Y122.444 E11.08948
G1 X88.3 Y102.914 E12.64845
G1 X88.336 Y101.908 E12.72881
G1 X88.346 Y101.773 E12.73961
G1 X88.448 Y100.856 E12.81326
G1 X88.473 Y100.681 E12.82738
G1 X88.635 Y99.803 E12.89864
G1 X88.665 Y99.669 E12.90961
G1 X88.896 Y98.784 E12.98262
G1 X88.948 Y98.612 E12.99696
G1 X89.234 Y97.77 E13.06794
G1 X89.298 Y97.604 E13.08215
G1 X89.639 Y96.801 E13.15178
G1 X89.72 Y96.626 E13.16718
G1 X90.135 Y95.818 E13.23969
G1 X90.202 Y95.701 E13.25045
G1 X90.676 Y94.922 E13.32324
G1 X90.776 Y94.771 E13.33769
G1 X91.287 Y94.057 E13.40778
G1 X91.4 Y93.909 E13.42265
G1 X91.976 Y93.218 E13.49445
G1 X92.077 Y93.105 E13.50655
G1 X92.702 Y92.456 E13.57848
G0 F12000 X92.8 Y92.361
G1 F1800 X92.8 Y133.029 E16.82477
G0 F12000 X94.4 Y134.358
G1 F1800 X94.4 Y91.034 E20.28308
G0 F12000 X96 Y90.042
G1 F1800 X96 Y135.358 E23.9004
G0 F12000 X97.6 Y136.1
G1 F1800 X97.6 Y89.307 E27.63562
G0 F12000 X99.2 Y88.78
G1 F1800 X99.2 Y136.612 E31.45378
G0 F12000 X100.8 Y136.944
G1 F1800 X100.8 Y88.462 E35.32382
G0 F12000 X102.4 Y88.31
G1 F1800 X102.4 Y137.081 E39.21693
G0 F12000 X104 Y137.099
G1 F1800 X104 Y88.3 E43.11228
G0 F12000 X105.6 Y88.3
G1 F1800 X105.6 Y137.099 E47.00763
G0 F12000 X107.2 Y137.099
G1 F1800 X107.2 Y88.3 E50.90297
G0 F12000 X108.8 Y88.3
G1 F1800 X108.8 Y137.099 E54.79832
G0 F12000 X110.4 Y137.099
G1 F1800 X110.4 Y88.3 E58.69367
G0 F12000 X112 Y88.3
G1 F1800 X112 Y137.099 E62.58901
G0 F12000 X113.6 Y137.099
G1 F1800 X113.6 Y88.3 E66.48436
G0 F12000 X115.2 Y88.3
G1 F1800 X115.2 Y137.099 E70.37971
G0 F12000 X116.8 Y137.099
G1 F1800 X116.8 Y88.3 E74.27506
G0 F12000 X118.4 Y88.3
G1 F1800 X118.4 Y137.099 E78.1704
G0 F12000 X120 Y137.099
G1 F1800 X120 Y88.3 E82.06575
G0 F12000 X121.6 Y88.3
G1 F1800 X121.6 Y137.099 E85.9611
G0 F12000 X123.2 Y137.078
G1 F1800 X123.2 Y88.326 E89.85269
G0 F12000 X124.8 Y88.487
G1 F1800 X124.8 Y136.909 E93.71795
G0 F12000 X126.4 Y136.562
G1 F1800 X126.4 Y88.838 E97.52748
G0 F12000 X128 Y89.384
G1 F1800 X128 Y136.017 E101.24993
G0 F12000 X129.6 Y135.246
G1 F1800 X129.6 Y90.145 E104.85009
G0 F12000 X131.2 Y91.184
G1 F1800 X131.2 Y134.216 E108.28509
G0 F12000 X132.8 Y132.839
G1 F1800 X132.8 Y92.563 E111.50009
G0 F12000 X134.4 Y94.446
G1 F1800 X134.4 Y130.942 E114.41336
G0 F12000 X136 Y128.036
G1 F1800 X136 Y97.356 E116.86237
G1 F2700 E114.86237
G0 F12000 X136.871 Y96.675
G0 X135.915 Y94.816
G0 X135.182 Y93.708
G0 X133.85 Y92.108
G0 X132.867 Y91.159
G0 X131.238 Y89.903
G0 X130.079 Y89.194
G0 X128.203 Y88.313
G0 X126.905 Y87.869
G0 X124.868 Y87.417
G0 X123.556 Y87.273
G0 X102.21 Y87.254
G0 X100.142 Y87.483
G0 X98.827 Y87.779
G0 X96.861 Y88.45
G0 X95.643 Y89.022
G0 X93.877 Y90.101
G0 X92.797 Y90.932
G0 X91.579 Y92.109
G0 X90.562 Y93.252
G0 X91.2 Y94.178
G1 F2700 E116.86237
G1 F1800 X91.2 Y131.219 E119.81914
G0 F12000 X89.6 Y128.501
G1 F1800 X89.6 Y96.892 E122.34231
G1 F2700 E120.34231
G0 F300 X89.6 Y96.892 Z0.54
G0 F12000 X90.675 Y94.921
;TIME_ELAPSED:60.855675
;LAYER:-5
;TYPE:SUPPORT
G1 F2700 E122.34231
G1 F1800 X90.202 Y95.7 E122.43325
G1 X90.144 Y95.8 E122.44478
G1 X129.591 Y135.248 E128.01125
G1 X129.256 Y135.437 E128.04963
G1 X129.106 Y135.515 E128.0665
G1 X128.655 Y135.727 E128.11622
G1 X89.666 Y96.737 E133.61806
G1 X89.638 Y96.8 E133.62494
G1 X89.297 Y97.603 E133.71199
G1 X89.247 Y97.732 E133.72579
G1 X127.659 Y136.144 E139.14614
G1 X127.289 Y136.287 E139.18572
G1 X127.139 Y136.339 E139.20156
G1 X126.601 Y136.5 E139.2576
G1 X88.893 Y98.792 E144.5786
G1 X88.664 Y99.668 E144.66895
G1 X88.635 Y99.801 E144.68253
G1 X88.611 Y99.925 E144.69513
G1 X125.471 Y136.785 E149.89648
G1 X125.222 Y136.841 E149.92194
G1 X125.092 Y136.864 E149.93512
G1 X124.259 Y136.987 E150.01914
G1 X88.415 Y101.143 E155.07711
G1 X88.345 Y101.772 E155.14026
G1 X88.336 Y101.906 E155.15366
G1 X88.316 Y102.458 E155.20878
G1 X122.948 Y137.09 E160.09573
G0 F12000 X122.944 Y137.091
G1 F1800 X122.439 Y137.099 E160.14612
G1 X121.542 Y137.098 E160.23562
G1 X88.299 Y103.856 E164.9265
G1 X88.299 Y105.27 E165.06759
G1 X120.128 Y137.098 E169.55893
G1 X118.714 Y137.098 E169.70002
G1 X88.299 Y106.684 E173.99184
G1 X88.299 Y108.098 E174.13293
G1 X117.299 Y137.098 E178.22514
G1 X115.885 Y137.098 E178.36623
G1 X88.299 Y109.513 E182.25884
G1 X88.299 Y110.927 E182.39993
G1 X114.471 Y137.098 E186.09301
G1 X113.057 Y137.098 E186.2341
G1 X88.299 Y112.341 E189.72765
G1 X88.299 Y113.755 E189.86874
G1 X111.642 Y137.098 E193.16269
G1 X110.228 Y137.098 E193.30378
G1 X88.299 Y115.17 E196.39813
G1 X88.299 Y116.584 E196.53922
G1 X108.813 Y137.098 E199.43397
G1 X107.399 Y137.098 E199.57506
G1 X88.299 Y117.998 E202.27027
G1 X88.299 Y119.412 E202.41136
G1 X105.985 Y137.098 E204.90705
G1 X104.571 Y137.098 E205.04814
G1 X88.299 Y120.826 E207.34429
G1 X88.299 Y122.241 E207.48548
G1 X103.156 Y137.098 E209.58196
G1 X102.896 Y137.098 E209.60791
G1 X101.896 Y137.062 E209.70775
G1 X101.773 Y137.053 E209.72006
G1 X101.688 Y137.043 E209.7286
G1 X88.36 Y123.716 E211.60925
G1 X88.383 Y124.017 E211.63937
G1 X88.4 Y124.177 E211.65543
G1 X88.535 Y125.091 E211.74762
G1 X88.557 Y125.215 E211.76018
G1 X88.589 Y125.358 E211.7748
G1 X100.037 Y136.807 E213.39031
G1 X99.791 Y136.762 E213.41526
G1 X99.668 Y136.733 E213.42787
G1 X98.775 Y136.5 E213.51996
G1 X98.612 Y136.451 E213.53694
G1 X98.089 Y136.273 E213.59207
G1 X89.116 Y127.3 E214.85826
G1 X89.441 Y128.148 E214.94887
G1 X89.487 Y128.26 E214.96095
G1 X89.884 Y129.106 E215.0542
G1 X89.956 Y129.245 E215.06982
G1 X90.351 Y129.949 E215.15037
G1 X95.441 Y135.039 E215.86862
G1 X94.922 Y134.723 E215.92925
G1 X94.77 Y134.623 E215.9474
G1 X94.057 Y134.111 E216.03499
G1 X93.908 Y133.998 E216.05365
G1 X93.218 Y133.423 E216.14327
G1 X93.104 Y133.322 E216.15847
G1 X92.455 Y132.697 E216.24837
G1 X92.336 Y132.571 E216.26566
G1 X91.732 Y131.9 E216.35575
G1 X91.636 Y131.782 E216.37093
G1 X91.078 Y131.06 E216.46197
G1 X90.974 Y130.914 E216.47986
G1 X90.481 Y130.171 E216.56883
G1 X90.408 Y130.05 E216.58293
G1 F2700 E214.58293
G0 F12000 X89.48 Y130.572
G0 X88.517 Y128.7
G0 X88.044 Y127.458
G0 X87.515 Y125.434
G0 X87.324 Y124.121
G0 X87.235 Y122.447
G0 X87.274 Y101.843
G0 X87.421 Y100.517
G0 X87.873 Y98.49
G0 X88.313 Y97.2
G0 X89.026 Y95.678
G0 X89.767 Y94.368
G0 X90.676 Y94.919
G1 F2700 E216.58293
G1 F1800 X130.474 Y134.717 E222.19886
G1 X130.915 Y134.425 E222.25164
G1 X131.073 Y134.312 E222.27102
G1 X131.304 Y134.133 E222.30018
G1 X91.261 Y94.089 E227.95075
G1 X91.286 Y94.055 E227.95496
G1 X91.399 Y93.908 E227.97346
G1 X91.897 Y93.311 E228.05103
G1 X132.086 Y133.5 E233.72213
G1 X132.572 Y133.063 E233.78735
G1 X132.698 Y132.943 E233.80471
G1 X132.818 Y132.818 E233.822
G1 X92.58 Y92.58 E239.50002
G1 X92.7 Y92.456 E239.51723
G1 X92.826 Y92.336 E239.5346
G1 X93.313 Y91.899 E239.59989
G1 X133.501 Y132.087 E245.27085
G1 X133.999 Y131.49 E245.34842
G1 X134.111 Y131.342 E245.36694
G1 X134.137 Y131.309 E245.37113
G1 X94.093 Y91.265 E251.02177
G1 X94.325 Y91.086 E251.05101
G1 X94.484 Y90.974 E251.07042
G1 X94.924 Y90.682 E251.12311
G1 X134.722 Y130.48 E256.73904
G0 F12000 X134.723 Y130.478
G1 F1800 X135.197 Y129.698 E256.83011
G1 X135.255 Y129.598 E256.84164
G1 X95.808 Y90.151 E262.40804
G1 X96.142 Y89.962 E262.44633
G1 X96.292 Y89.884 E262.4632
G1 X96.743 Y89.672 E262.51293
G1 X135.731 Y128.66 E268.01456
G1 X135.76 Y128.598 E268.02139
G1 X136.095 Y127.809 E268.10691
G1 X136.15 Y127.665 E268.1223
G1 X97.739 Y89.253 E273.54257
G1 X98.108 Y89.111 E273.58202
G1 X98.259 Y89.06 E273.59793
G1 X98.798 Y88.898 E273.65409
G1 X136.505 Y126.606 E278.97502
G1 X136.734 Y125.73 E279.06537
G1 X136.763 Y125.597 E279.07895
G1 X136.786 Y125.473 E279.09153
G1 X99.927 Y88.613 E284.29281
G1 X100.177 Y88.558 E284.31835
G1 X100.307 Y88.535 E284.33152
G1 X101.14 Y88.412 E284.41554
G1 X136.983 Y124.255 E289.47337
G1 X137.053 Y123.627 E289.53642
G1 X137.062 Y123.491 E289.55002
G1 X137.083 Y122.941 E289.60494
G1 X102.45 Y88.308 E294.49203
G0 F12000 X102.454 Y88.307
G1 F1800 X102.958 Y88.299 E294.54233
G1 X103.856 Y88.299 E294.63193
G1 X137.099 Y121.543 E299.32295
G1 X137.099 Y120.128 E299.46414
G1 X105.27 Y88.299 E303.95555
G1 X106.684 Y88.299 E304.09664
G1 X137.099 Y118.714 E308.38853
G1 X137.099 Y117.3 E308.52962
G1 X108.098 Y88.299 E312.62197
G1 X109.513 Y88.299 E312.76316
G1 X137.099 Y115.886 E316.65591
G1 X137.099 Y114.472 E316.797
G1 X110.927 Y88.299 E320.49023
G1 X112.341 Y88.299 E320.63132
G1 X137.099 Y113.057 E324.12494
G1 X137.099 Y111.643 E324.26603
G1 X113.755 Y88.299 E327.56012
G1 X115.17 Y88.299 E327.70131
G1 X137.099 Y110.229 E330.7958
G1 X137.099 Y108.815 E330.93688
G1 X116.584 Y88.299 E333.83184
G1 X117.998 Y88.299 E333.97293
G1 X137.099 Y107.401 E336.66836
G1 X137.099 Y105.986 E336.80955
G1 X119.412 Y88.299 E339.30538
G1 X120.826 Y88.299 E339.44647
G1 X137.099 Y104.572 E341.74276
G1 X137.099 Y103.158 E341.88385
G1 X122.241 Y88.299 E343.98055
G1 X122.501 Y88.299 E344.00649
G1 X123.501 Y88.336 E344.10634
G1 X123.625 Y88.345 E344.11874
G1 X123.71 Y88.355 E344.12728
G1 X137.039 Y101.684 E346.00815
G1 X137.015 Y101.367 E346.03987
G1 X136.996 Y101.204 E346.05624
G1 X136.864 Y100.305 E346.14691
G1 X136.839 Y100.167 E346.1609
G1 X136.811 Y100.042 E346.17368
G1 X125.359 Y88.589 E347.78976
G1 X125.589 Y88.631 E347.81308
G1 X125.744 Y88.666 E347.82894
G1 X126.608 Y88.892 E347.91805
G1 X126.776 Y88.943 E347.93557
G1 X127.308 Y89.125 E347.99167
G1 X136.284 Y98.101 E349.25828
G1 X135.957 Y97.246 E349.34962
G1 X135.896 Y97.104 E349.36504
G1 X135.513 Y96.287 E349.45508
G1 X135.443 Y96.15 E349.47043
G1 X135.051 Y95.453 E349.55022
G1 X129.957 Y90.359 E350.26904
G1 X130.476 Y90.675 E350.32967
G1 X130.627 Y90.774 E350.34768
G1 X131.345 Y91.288 E350.43579
G1 X131.486 Y91.397 E350.45357
G1 X132.177 Y91.969 E350.54308
G1 X132.293 Y92.074 E350.55869
G1 X132.936 Y92.693 E350.64775
G1 X133.073 Y92.837 E350.66758
G1 X133.671 Y93.503 E350.75689
G1 X133.754 Y93.603 E350.76986
G1 X134.321 Y94.335 E350.86225
G1 X134.415 Y94.468 E350.8785
G1 X134.915 Y95.221 E350.96869
G1 X134.991 Y95.346 E350.98329
G1 F2700 E348.98329
G0 F300 X134.991 Y95.346 Z0.74
G0 F12000 X135.819 Y94.658
G0 X134.59 Y92.943
G0 X133.697 Y91.948
G0 X132.159 Y90.571
G0 X131.042 Y89.773
G0 X129.248 Y88.767
G0 X127.983 Y88.23
G0 X126.003 Y87.635
G0 X125.436 Y88.4
;TIME_ELAPSED:142.342394
;LAYER:-4
;TYPE:SUPPORT-INTERFACE
G1 F2700 E350.98329
G1 F2400 X99.972 Y88.4 E351.83022
G1 X100.133 Y88.364 E351.83571
G1 X100.286 Y88.336 E351.84088
G1 X101.186 Y88.203 E351.87114
G1 X101.361 Y88.183 E351.877
G1 X102.261 Y88.117 E351.90701
G1 X102.445 Y88.108 E351.91314
G1 X102.957 Y88.1 E351.93017
G1 X122.509 Y88.099 E352.58048
G1 X123.513 Y88.135 E352.61389
G1 X123.648 Y88.145 E352.61839
G1 X124.579 Y88.248 E352.64955
G1 X124.725 Y88.269 E352.65445
G1 F2700 E350.65445
G0 F12000 X124.685 Y87.391
G0 X122.486 Y87.235
G0 X102.21 Y87.254
G0 X101.89 Y87.279
G0 X99.966 Y87.515
G0 X99.972 Y88.4
G1 F2700 E352.65445
