;FLAVOR:Marlin
;TIME:775
;Filament used: 0.283715m
;Layer height: 0.2
;MINX:101.1
;MINY:101.099
;MINZ:0.2
;MAXX:124.3
;MAXY:124.3
;MAXZ:19.4
;Generated with Creality Slicer 4.8.2-291
M140 S85
M105
M190 S85
M104 S225
M105
M109 S225
M82 ;absolute extrusion mode

G28 ;Home

G92 E0 ;Reset Extruder
G1 Z2.0 F3000 ;Move Z Axis up
G1 X10.1 Y20 Z0.28 F5000.0 ;Move to start position
G1 X10.1 Y200.0 Z0.28 F1500.0 E15 ;Draw the first line
G1 X10.4 Y200.0 Z0.28 F5000.0 ;Move to side a little
G1 X10.4 Y20 Z0.28 F1500.0 E30 ;Draw the second line
G92 E0 ;Reset Extruder
G1 Z2.0 F3000 ;Move Z Axis up

G92 E0
G92 E0
G1 F3000 E-3
;LAYER_COUNT:100
;LAYER:0
M107
G0 F1200 X101.73 Y101.548 Z0.2
;TYPE:SKIRT
G1 F3000 E0
G1 F2400 X102.041 Y101.332 E0.01259
G1 X102.391 Y101.185 E0.02522
G1 X102.856 Y101.11 E0.04089
G1 X103.213 Y101.1 E0.05276
G1 X121.817 Y101.099 E0.67154
G1 X122.516 Y101.109 E0.69479
G1 X122.892 Y101.154 E0.70738
G1 X123.25 Y101.277 E0.71997
G1 X123.575 Y101.473 E0.7326
G1 X123.852 Y101.732 E0.74521
G1 X124.068 Y102.043 E0.7578
G1 X124.214 Y102.393 E0.77042
G1 X124.289 Y102.856 E0.78602
G1 X124.3 Y103.248 E0.79906
G1 X124.3 Y121.786 E1.41564
G1 X124.291 Y122.513 E1.43982
G1 X124.246 Y122.89 E1.45245
G1 X124.124 Y123.248 E1.46503
G1 X123.929 Y123.573 E1.47763
G1 X123.671 Y123.85 E1.49022
G1 X123.36 Y124.067 E1.50283
G1 X123.011 Y124.214 E1.51543
G1 X122.541 Y124.29 E1.53127
G1 X122.17 Y124.3 E1.54361
G1 X103.584 Y124.3 E2.16178
G1 X102.886 Y124.291 E2.185
G1 X102.509 Y124.246 E2.19763
G1 X102.151 Y124.124 E2.21021
G1 X101.826 Y123.929 E2.22281
G1 X101.549 Y123.67 E2.23543
G1 X101.332 Y123.359 E2.24804
G1 X101.185 Y123.01 E2.26063
G1 X101.11 Y122.54 E2.27646
G1 X101.1 Y122.158 E2.28917
G1 X101.1 Y103.561 E2.90771
G1 X101.109 Y102.885 E2.9302
G1 X101.154 Y102.509 E2.94279
G1 X101.277 Y102.15 E2.95542
G1 X101.472 Y101.825 E2.96802
G1 X101.73 Y101.548 E2.98061
G0 F1200 X102.118 Y101.754
G1 F2400 X102.414 Y101.6 E2.99171
G1 X102.868 Y101.51 E3.0071
G1 X103.213 Y101.5 E3.01858
G1 X121.811 Y101.499 E3.63716
G1 X122.51 Y101.509 E3.66041
G1 X122.841 Y101.554 E3.67152
G1 X123.152 Y101.676 E3.68263
G1 X123.426 Y101.868 E3.69376
G1 X123.646 Y102.119 E3.70486
G1 X123.8 Y102.415 E3.71596
G1 X123.889 Y102.868 E3.73131
G1 X123.9 Y103.248 E3.74395
G1 X123.9 Y121.781 E4.36036
G1 X123.891 Y122.508 E4.38455
G1 X123.847 Y122.839 E4.39565
G1 X123.726 Y123.151 E4.40678
G1 X123.534 Y123.425 E4.41791
G1 X123.283 Y123.645 E4.42901
G1 X122.987 Y123.8 E4.44012
G1 X122.53 Y123.89 E4.45562
G1 X122.17 Y123.9 E4.46759
G1 X103.589 Y123.9 E5.0856
G1 X102.891 Y123.891 E5.10882
G1 X102.56 Y123.847 E5.11992
G1 X102.249 Y123.725 E5.13104
G1 X101.975 Y123.534 E5.14215
G1 X101.754 Y123.283 E5.15327
G1 X101.6 Y122.987 E5.16437
G1 X101.51 Y122.529 E5.17989
G1 X101.5 Y122.158 E5.19223
G1 X101.5 Y103.566 E5.81061
G1 X101.509 Y102.89 E5.83309
G1 X101.553 Y102.559 E5.8442
G1 X101.675 Y102.248 E5.85531
G1 X101.867 Y101.974 E5.86644
G1 X102.118 Y101.754 E5.87754
G0 F1200 X102.258 Y102.149
G1 F2400 X102.497 Y101.998 E5.88694
G1 X102.879 Y101.909 E5.89999
G1 X103.213 Y101.9 E5.9111
G1 X121.805 Y101.899 E6.52947
G1 X122.504 Y101.909 E6.55272
G1 X122.783 Y101.953 E6.56212
G1 X123.038 Y102.073 E6.57149
G1 X123.25 Y102.259 E6.58087
G1 X123.401 Y102.497 E6.59025
G1 X123.49 Y102.88 E6.60333
G1 X123.5 Y103.219 E6.61461
G1 X123.5 Y121.776 E7.23181
G1 X123.491 Y122.503 E7.256
G1 X123.448 Y122.782 E7.26538
G1 X123.328 Y123.038 E7.27479
G1 X123.142 Y123.25 E7.28417
G1 X122.904 Y123.402 E7.29356
G1 X122.519 Y123.491 E7.3067
G1 X122.198 Y123.5 E7.31738
G1 X103.594 Y123.5 E7.93616
G1 X102.896 Y123.491 E7.95937
G1 X102.617 Y123.448 E7.96876
G1 X102.362 Y123.328 E7.97814
G1 X102.15 Y123.142 E7.98752
G1 X101.998 Y122.904 E7.99691
G1 X101.909 Y122.518 E8.01008
G1 X101.9 Y122.185 E8.02116
G1 X101.9 Y103.572 E8.64023
G1 X101.909 Y102.896 E8.66272
G1 X101.953 Y102.617 E8.67212
G1 X102.072 Y102.361 E8.6815
G1 X102.258 Y102.149 E8.69088
G0 F1200 X102.468 Y102.502
G1 F2400 X102.642 Y102.372 E8.69811
G1 X102.891 Y102.309 E8.70665
G1 X103.213 Y102.3 E8.71737
G1 X121.8 Y102.299 E9.33557
G1 X122.499 Y102.309 E9.35882
G1 X122.713 Y102.352 E9.36608
G1 X122.897 Y102.468 E9.37332
G1 X123.028 Y102.643 E9.38059
G1 X123.09 Y102.891 E9.38909
G1 X123.1 Y103.23 E9.40037
G1 X123.1 Y121.771 E10.01705
G1 X123.091 Y122.498 E10.04123
G1 X123.049 Y122.712 E10.04848
G1 X122.933 Y122.897 E10.05574
G1 X122.758 Y123.028 E10.06302
G1 X122.508 Y123.091 E10.07159
G1 X122.187 Y123.1 E10.08227
G1 X103.599 Y123.1 E10.70051
G1 X102.901 Y123.091 E10.72373
G1 X102.687 Y123.049 E10.73098
G1 X102.503 Y122.932 E10.73823
G1 X102.372 Y122.758 E10.74548
G1 X102.309 Y122.507 E10.75409
G1 X102.3 Y122.174 E10.76516
G1 X102.3 Y103.577 E11.3837
G1 X102.309 Y102.901 E11.40619
G1 X102.352 Y102.687 E11.41345
G1 X102.468 Y102.502 E11.42071
G0 F1200 X102.75 Y102.788
G1 F2400 X102.903 Y102.709 E11.42644
G1 X103.213 Y102.7 E11.43675
G1 X121.794 Y102.699 E12.05476
G1 X122.493 Y102.709 E12.07801
G1 X122.611 Y102.75 E12.08217
G1 X122.69 Y102.903 E12.08789
G1 X122.7 Y103.242 E12.09917
G1 X122.7 Y121.766 E12.71528
G1 X122.691 Y122.493 E12.73947
G1 X122.651 Y122.612 E12.74364
G1 X122.497 Y122.691 E12.7494
G1 X122.176 Y122.7 E12.76008
G1 X103.604 Y122.7 E13.37779
G1 X102.906 Y122.691 E13.401
G1 X102.788 Y122.65 E13.40516
G1 X102.709 Y122.496 E13.41092
G1 X102.7 Y122.163 E13.422
G1 X102.7 Y103.582 E14.04
G1 X102.709 Y102.906 E14.06249
G1 X102.75 Y102.788 E14.06664
G1 F3000 E11.06664
;MESH:four_square_cons.stl
G0 F1200 X103.314 Y103.314
G0 X121.5 Y103.899
;TYPE:WALL-INNER
G1 F3000 E14.06664
G1 F2400 X121.5 Y104.098 E14.07326
G1 X121.5 Y121.5 E14.65205
G1 X103.9 Y121.5 E15.23743
G1 X103.9 Y103.9 E15.82281
G1 X121.301 Y103.899 E16.40157
G1 X121.5 Y103.899 E16.40585
G0 F1200 X121.9 Y103.499
G1 F2400 X121.9 Y103.698 E16.41247
G1 X121.9 Y121.9 E17.01787
G1 X103.5 Y121.9 E17.62986
G1 X103.5 Y103.5 E18.24185
G1 X121.701 Y103.499 E18.84721
G1 X121.9 Y103.499 E18.8515
G0 F1200 X122.3 Y103.299
;TYPE:WALL-OUTER
G1 F2400 X122.3 Y122.3 E19.48347
G1 X103.1 Y122.3 E20.12207
G1 X103.1 Y103.1 E20.76066
G1 X122.1 Y103.099 E21.3926
G1 X122.3 Y103.099 E21.39926
G1 X122.3 Y103.299 E21.40356
G0 F1200 X121.859 Y103.54
G0 X121.11 Y104.009
G0 X121.11 Y104.289
;TYPE:SKIN
G1 F2400 X121.11 Y121.11 E21.96303
G1 X104.29 Y121.11 E22.52247
G1 X104.29 Y104.29 E23.0819
G1 X121.11 Y104.289 E23.64134
G0 F1200 X120.949 Y104.545
G1 F2400 X120.854 Y104.449 E23.64583
G0 F1200 X120.288 Y104.449
G1 F2400 X120.949 Y105.11 E23.67692
G0 F1200 X120.949 Y105.676
G1 F2400 X119.723 Y104.449 E23.73461
G0 F1200 X119.157 Y104.449
G1 F2400 X120.949 Y106.242 E23.81893
G0 F1200 X120.949 Y106.807
G1 F2400 X118.591 Y104.449 E23.92984
G0 F1200 X118.026 Y104.449
G1 F2400 X120.949 Y107.373 E24.06735
G0 F1200 X120.949 Y107.939
G1 F2400 X117.46 Y104.449 E24.23149
G0 F1200 X116.894 Y104.449
G1 F2400 X120.949 Y108.504 E24.42222
G0 F1200 X120.949 Y109.07
G1 F2400 X116.328 Y104.449 E24.63958
G0 F1200 X115.763 Y104.449
G1 F2400 X120.949 Y109.636 E24.88354
G0 F1200 X120.949 Y110.201
G1 F2400 X115.197 Y104.449 E25.15409
G0 F1200 X114.631 Y104.449
G1 F2400 X120.949 Y110.767 E25.45127
G0 F1200 X120.949 Y111.333
G1 F2400 X114.066 Y104.449 E25.77505
G0 F1200 X113.5 Y104.449
G1 F2400 X120.949 Y111.898 E26.12543
G0 F1200 X120.949 Y112.464
G1 F2400 X112.934 Y104.449 E26.50243
G0 F1200 X112.369 Y104.449
G1 F2400 X120.949 Y113.03 E26.90603
G0 F1200 X120.949 Y113.595
G1 F2400 X111.803 Y104.449 E27.33623
G0 F1200 X111.237 Y104.449
G1 F2400 X120.949 Y114.161 E27.79305
G0 F1200 X120.949 Y114.727
G1 F2400 X110.672 Y104.449 E28.27648
G0 F1200 X110.106 Y104.449
G1 F2400 X120.949 Y115.293 E28.78652
G0 F1200 X120.949 Y115.858
G1 F2400 X109.54 Y104.449 E29.32316
G0 F1200 X108.975 Y104.449
G1 F2400 X120.949 Y116.424 E29.88641
G0 F1200 X120.949 Y116.99
G1 F2400 X108.409 Y104.449 E30.47627
G0 F1200 X107.843 Y104.449
G1 F2400 X120.949 Y117.555 E31.09274
G0 F1200 X120.949 Y118.121
G1 F2400 X107.277 Y104.449 E31.73583
G0 F1200 X106.712 Y104.449
G1 F2400 X120.949 Y118.687 E32.40552
G0 F1200 X120.949 Y119.252
G1 F2400 X106.146 Y104.449 E33.10181
G0 F1200 X105.58 Y104.449
G1 F2400 X120.949 Y119.818 E33.82472
G0 F1200 X120.949 Y120.384
G1 F2400 X105.015 Y104.449 E34.57423
G0 F1200 X104.449 Y104.449
G1 F2400 X120.949 Y120.949 E35.35034
G0 F1200 X120.383 Y120.949
G1 F2400 X104.449 Y105.015 E36.09982
G0 F1200 X104.449 Y105.58
G1 F2400 X119.817 Y120.949 E36.82271
G0 F1200 X119.252 Y120.949
G1 F2400 X104.449 Y106.146 E37.519
G0 F1200 X104.449 Y106.712
G1 F2400 X118.686 Y120.949 E38.18866
G0 F1200 X118.12 Y120.949
G1 F2400 X104.449 Y107.277 E38.83173
G0 F1200 X104.449 Y107.843
G1 F2400 X117.555 Y120.949 E39.44819
G0 F1200 X116.989 Y120.949
G1 F2400 X104.449 Y108.409 E40.03804
G0 F1200 X104.449 Y108.975
G1 F2400 X116.423 Y120.949 E40.60126
G0 F1200 X115.858 Y120.949
G1 F2400 X104.449 Y109.54 E41.1379
G0 F1200 X104.449 Y110.106
G1 F2400 X115.292 Y120.949 E41.64792
G0 F1200 X114.726 Y120.949
G1 F2400 X104.449 Y110.672 E42.13132
G0 F1200 X104.449 Y111.237
G1 F2400 X114.16 Y120.949 E42.58812
G0 F1200 X113.595 Y120.949
G1 F2400 X104.449 Y111.803 E43.01832
G0 F1200 X104.449 Y112.369
G1 F2400 X113.029 Y120.949 E43.4219
G0 F1200 X112.463 Y120.949
G1 F2400 X104.449 Y112.934 E43.79888
G0 F1200 X104.449 Y113.5
G1 F2400 X111.898 Y120.949 E44.14925
G0 F1200 X111.332 Y120.949
G1 F2400 X104.449 Y114.066 E44.47301
G0 F1200 X104.449 Y114.631
G1 F2400 X110.766 Y120.949 E44.77016
G0 F1200 X110.201 Y120.949
G1 F2400 X104.449 Y115.197 E45.04072
G0 F1200 X104.449 Y115.763
G1 F2400 X109.635 Y120.949 E45.28465
G0 F1200 X109.069 Y120.949
G1 F2400 X104.449 Y116.328 E45.50199
G0 F1200 X104.449 Y116.894
G1 F2400 X108.504 Y120.949 E45.69272
G0 F1200 X107.938 Y120.949
G1 F2400 X104.449 Y117.46 E45.85683
G0 F1200 X104.449 Y118.026
G1 F2400 X107.372 Y120.949 E45.99432
G0 F1200 X106.807 Y120.949
G1 F2400 X104.449 Y118.591 E46.10524
G0 F1200 X104.449 Y119.157
G1 F2400 X106.241 Y120.949 E46.18953
G0 F1200 X105.675 Y120.949
G1 F2400 X104.449 Y119.723 E46.24719
G0 F1200 X104.449 Y120.288
G1 F2400 X105.11 Y120.949 E46.27829
G0 F1200 X104.544 Y120.949
G1 F2400 X104.449 Y120.854 E46.28275
G0 F1200 X103.71 Y120.854
G1 F3000 E43.28275
;MESH:NONMESH
G0 F300 X103.71 Y120.854 Z0.4
G0 F1200 X104.082 Y104.082
G0 X121.5 Y103.699
;TIME_ELAPSED:54.861976
;LAYER:1
M106 S85
;TYPE:WALL-INNER
;MESH:four_square_cons.stl
G1 F3000 E46.28275
G1 F2400 X121.5 Y103.898 E46.28937
G1 X121.5 Y121.5 E46.87482
G1 X103.7 Y121.5 E47.46685
G1 X103.7 Y103.7 E48.05888
G1 X121.301 Y103.699 E48.64429
G1 X121.5 Y103.699 E48.64857
G0 F6600 X121.9 Y103.299
G1 F2400 X121.9 Y103.498 E48.65519
G1 X121.9 Y121.9 E49.26724
G1 X103.3 Y121.9 E49.88588
G1 X103.3 Y103.3 E50.50452
G1 X121.701 Y103.299 E51.11654
G1 X121.9 Y103.299 E51.12082
G0 F6600 X122.3 Y103.099
;TYPE:WALL-OUTER
G1 F2400 X122.3 Y122.3 E51.75945
G1 X102.9 Y122.3 E52.4047
G1 X102.9 Y102.9 E53.04994
G1 X122.1 Y102.899 E53.68854
G1 X122.3 Y102.899 E53.69519
G1 X122.3 Y103.099 E53.6995
G0 F6600 X121.859 Y103.34
G0 X121.11 Y103.809
G0 X121.11 Y104.089
;TYPE:SKIN
G1 F1800 X121.11 Y121.11 E54.26562
G1 X104.09 Y121.11 E54.83171
G1 X104.09 Y104.09 E55.39779
G1 X121.11 Y104.089 E55.96388
G0 F6600 X121.11 Y103.809
G0 X103.882 Y103.882
G0 X103.81 Y104.487
G0 X104.25 Y104.487
G1 F1800 X104.489 Y104.248 E55.97512
G0 F6600 X105.054 Y104.248
G1 F1800 X104.25 Y105.053 E56.01296
G0 F6600 X104.25 Y105.619
G1 F1800 X105.62 Y104.248 E56.07743
G0 F6600 X106.186 Y104.248
G1 F1800 X104.25 Y106.184 E56.16849
G0 F6600 X104.25 Y106.75
G1 F1800 X106.751 Y104.248 E56.28616
G0 F6600 X107.317 Y104.248
G1 F1800 X104.25 Y107.316 E56.43044
G0 F6600 X104.25 Y107.881
G1 F1800 X107.883 Y104.248 E56.60133
G0 F6600 X108.448 Y104.248
G1 F1800 X104.25 Y108.447 E56.79881
G0 F6600 X104.25 Y109.013
G1 F1800 X109.014 Y104.248 E57.02292
G0 F6600 X109.58 Y104.248
G1 F1800 X104.25 Y109.578 E57.27363
G0 F6600 X104.25 Y110.144
G1 F1800 X110.146 Y104.248 E57.55096
G0 F6600 X110.711 Y104.248
G1 F1800 X104.25 Y110.71 E57.85488
G0 F6600 X104.25 Y111.275
G1 F1800 X111.277 Y104.248 E58.18541
G0 F6600 X111.843 Y104.248
G1 F1800 X104.25 Y111.841 E58.54256
G0 F6600 X104.25 Y112.407
G1 F1800 X112.408 Y104.248 E58.92631
G0 F6600 X112.974 Y104.248
G1 F1800 X104.25 Y112.973 E59.33669
G0 F6600 X104.25 Y113.538
G1 F1800 X113.54 Y104.248 E59.77366
G0 F6600 X114.105 Y104.248
G1 F1800 X104.25 Y114.104 E60.23723
G0 F6600 X104.25 Y114.67
G1 F1800 X114.671 Y104.248 E60.72743
G0 F6600 X115.237 Y104.248
G1 F1800 X104.25 Y115.235 E61.24422
G0 F6600 X104.25 Y115.801
G1 F1800 X115.802 Y104.248 E61.78762
G0 F6600 X116.368 Y104.248
G1 F1800 X104.25 Y116.367 E62.35764
G0 F6600 X104.25 Y116.932
G1 F1800 X116.934 Y104.248 E62.95425
G0 F6600 X117.499 Y104.248
G1 F1800 X104.25 Y117.498 E63.57747
G0 F6600 X104.25 Y118.064
G1 F1800 X118.065 Y104.248 E64.22731
G0 F6600 X118.631 Y104.248
G1 F1800 X104.25 Y118.629 E64.90375
G0 F6600 X104.25 Y119.195
G1 F1800 X119.196 Y104.248 E65.60678
G0 F6600 X119.762 Y104.248
G1 F1800 X104.25 Y119.761 E66.33644
G0 F6600 X104.25 Y120.326
G1 F1800 X120.328 Y104.248 E67.0927
G0 F6600 X120.894 Y104.248
G1 F1800 X104.25 Y120.892 E67.87559
G0 F6600 X104.758 Y120.949
G1 F1800 X120.949 Y104.759 E68.63714
G0 F6600 X120.949 Y105.324
G1 F1800 X105.324 Y120.949 E69.37209
G0 F6600 X105.889 Y120.949
G1 F1800 X120.949 Y105.89 E70.08044
G0 F6600 X120.949 Y106.456
G1 F1800 X106.455 Y120.949 E70.76217
G0 F6600 X107.021 Y120.949
G1 F1800 X120.949 Y107.022 E71.41728
G0 F6600 X120.949 Y107.587
G1 F1800 X107.587 Y120.949 E72.04579
G0 F6600 X108.152 Y120.949
G1 F1800 X120.949 Y108.153 E72.64769
G0 F6600 X120.949 Y108.719
G1 F1800 X108.718 Y120.949 E73.22298
G0 F6600 X109.284 Y120.949
G1 F1800 X120.949 Y109.284 E73.77167
G0 F6600 X120.949 Y109.85
G1 F1800 X109.849 Y120.949 E74.29375
G0 F6600 X110.415 Y120.949
G1 F1800 X120.949 Y110.416 E74.78922
G0 F6600 X120.949 Y110.981
G1 F1800 X110.981 Y120.949 E75.25808
G0 F6600 X111.546 Y120.949
G1 F1800 X120.949 Y111.547 E75.70034
G0 F6600 X120.949 Y112.113
G1 F1800 X112.112 Y120.949 E76.11599
G0 F6600 X112.678 Y120.949
G1 F1800 X120.949 Y112.678 E76.50503
G0 F6600 X120.949 Y113.244
G1 F1800 X113.243 Y120.949 E76.86747
G0 F6600 X113.809 Y120.949
G1 F1800 X120.949 Y113.81 E77.20329
G0 F6600 X120.949 Y114.375
G1 F1800 X114.375 Y120.949 E77.51251
G0 F6600 X114.94 Y120.949
G1 F1800 X120.949 Y114.941 E77.79513
G0 F6600 X120.949 Y115.507
G1 F1800 X115.506 Y120.949 E78.05113
G0 F6600 X116.072 Y120.949
G1 F1800 X120.949 Y116.072 E78.28053
G0 F6600 X120.949 Y116.638
G1 F1800 X116.637 Y120.949 E78.48333
G0 F6600 X117.203 Y120.949
G1 F1800 X120.949 Y117.204 E78.65951
G0 F6600 X120.949 Y117.77
G1 F1800 X117.769 Y120.949 E78.80906
G0 F6600 X118.335 Y120.949
G1 F1800 X120.949 Y118.335 E78.93202
G0 F6600 X120.949 Y118.901
G1 F1800 X118.9 Y120.949 E79.02837
G0 F6600 X119.466 Y120.949
G1 F1800 X120.949 Y119.467 E79.0981
G0 F6600 X120.949 Y120.032
G1 F1800 X120.032 Y120.949 E79.14124
G0 F6600 X120.597 Y120.949
G1 F1800 X120.949 Y120.598 E79.15777
G0 F6600 X121.69 Y120.598
G1 F3000 E76.15777
;MESH:NONMESH
G0 F300 X121.69 Y120.598 Z0.6
G0 F6600 X121.5 Y103.5
;TIME_ELAPSED:93.148999
;LAYER:2
M106 S170
;TYPE:WALL-INNER
;MESH:four_square_cons.stl
G1 F3000 E79.15777
G1 F2400 X121.5 Y103.699 E79.16439
G1 X121.5 Y121.5 E79.75645
G1 X103.5 Y121.5 E80.35514
G1 X103.5 Y103.501 E80.95378
G1 X121.301 Y103.5 E81.54585
G1 X121.5 Y103.5 E81.55013
G0 F12000 X121.9 Y103.1
G1 F2400 X121.9 Y103.299 E81.55675
G1 X121.9 Y121.9 E82.17542
G1 X103.1 Y121.9 E82.80071
G1 X103.1 Y103.101 E83.42597
G1 X121.701 Y103.1 E84.04464
G1 X121.9 Y103.1 E84.04892
G0 F12000 X122.3 Y102.9
;TYPE:WALL-OUTER
G1 F2400 X122.3 Y122.3 E84.69417
G1 X102.7 Y122.3 E85.34607
G1 X102.7 Y102.701 E85.99793
G1 X122.1 Y102.7 E86.64318
G1 X122.3 Y102.7 E86.64983
G1 X122.3 Y102.9 E86.65414
G0 F12000 X121.859 Y103.141
G0 X121.11 Y103.61
G0 X121.11 Y103.89
;TYPE:SKIN
G1 F1200 X121.11 Y121.11 E87.22688
G1 X103.89 Y121.11 E87.79962
G1 X103.89 Y103.891 E88.37232
G1 X121.11 Y103.89 E88.94506
G0 F12000 X120.949 Y104.545
G1 F1200 X120.454 Y104.05 E88.96835
