;FLAVOR:Marlin
;TIME:2413
;Filament used: 1.66065m
;Layer height: 0.2
;MINX:82.815
;MINY:82.815
;MINZ:0.2
;MAXX:142.185
;MAXY:142.186
;MAXZ:5
;Generated with Creality Slicer 4.8.2-291
M140 S85
M105
M190 S85
M104 S225
M105
M109 S225
M82 ;absolute extrusion mode

G28 ;Home

G92 E0 ;Reset Extruder
G1 Z2.0 F3000 ;Move Z Axis up
G1 X10.1 Y20 Z0.28 F5000.0 ;Move to start position
G1 X10.1 Y200.0 Z0.28 F1500.0 E15 ;Draw the first line
G1 X10.4 Y200.0 Z0.28 F5000.0 ;Move to side a little
G1 X10.4 Y20 Z0.28 F1500.0 E30 ;Draw the second line
G92 E0 ;Reset Extruder
G1 Z2.0 F3000 ;Move Z Axis up

G92 E0
G92 E0
G1 F2700 E-2
;LAYER_COUNT:25
;LAYER:0
M106 S255
G0 F6000 X92.003 Y92.154 Z0.2
;TYPE:SKIRT
G1 F2700 E0
G1 F1200 X92.283 Y91.898 E0.01262
G1 X92.611 Y91.707 E0.02524
G1 X92.829 Y91.626 E0.03298
G1 X93.114 Y91.54 E0.04288
G1 X95.757 Y90.705 E0.13507
G1 X98.385 Y89.792 E0.2276
G1 X100.986 Y88.806 E0.32012
G1 X103.563 Y87.744 E0.41282
G1 X106.08 Y86.623 E0.50447
G1 X108.601 Y85.412 E0.59749
G1 X111.007 Y84.158 E0.68773
G1 X111.681 Y83.814 E0.7129
G1 X112.035 Y83.678 E0.72551
G1 X112.409 Y83.619 E0.7381
G1 X112.787 Y83.64 E0.75069
G1 X113.153 Y83.74 E0.76331
G1 X113.345 Y83.828 E0.77034
G1 X113.927 Y84.138 E0.79227
G1 X116.374 Y85.399 E0.88383
G1 X118.91 Y86.616 E0.97739
G1 X121.425 Y87.738 E1.06898
G1 X124.055 Y88.824 E1.16362
G1 X126.588 Y89.783 E1.2537
G1 X129.218 Y90.697 E1.34631
G1 X131.638 Y91.453 E1.43064
G1 X132.206 Y91.637 E1.45049
G1 X132.552 Y91.791 E1.46309
G1 X132.858 Y92.014 E1.47568
G1 X133.111 Y92.296 E1.48828
G1 X133.299 Y92.625 E1.50089
G1 X133.373 Y92.824 E1.50795
G1 X133.573 Y93.48 E1.53076
G1 X134.418 Y96.121 E1.62299
G1 X135.332 Y98.722 E1.71468
G1 X136.345 Y101.362 E1.80873
G1 X137.405 Y103.905 E1.90036
G1 X138.533 Y106.412 E1.9918
G1 X139.757 Y108.94 E2.08522
G1 X140.922 Y111.162 E2.16866
G1 X141.188 Y111.684 E2.18815
G1 X141.323 Y112.038 E2.20075
G1 X141.382 Y112.412 E2.21334
G1 X141.361 Y112.79 E2.22594
G1 X141.261 Y113.156 E2.23856
G1 X141.173 Y113.347 E2.24555
G1 X140.865 Y113.925 E2.26733
G1 X139.58 Y116.418 E2.36062
G1 X138.399 Y118.876 E2.45132
G1 X137.261 Y121.429 E2.54428
G1 X136.176 Y124.055 E2.63879
G1 X135.221 Y126.576 E2.72845
G1 X134.303 Y129.219 E2.82151
G1 X133.368 Y132.192 E2.92517
G1 X133.217 Y132.54 E2.93778
G1 X132.996 Y132.848 E2.95039
G1 X132.716 Y133.103 E2.96299
G1 X132.389 Y133.294 E2.97558
G1 X132.17 Y133.376 E2.98336
G1 X131.891 Y133.459 E2.99304
G1 X129.238 Y134.297 E3.08558
G1 X126.63 Y135.203 E3.17741
G1 X124.007 Y136.198 E3.27071
G1 X121.469 Y137.243 E3.362
G1 X118.911 Y138.383 E3.45515
G1 X116.428 Y139.574 E3.54674
G1 X114.02 Y140.83 E3.63707
G1 X113.317 Y141.188 E3.66331
G1 X112.963 Y141.323 E3.67591
G1 X112.588 Y141.382 E3.68854
G1 X112.21 Y141.361 E3.70113
G1 X111.845 Y141.26 E3.71373
G1 X111.655 Y141.173 E3.72068
G1 X111.053 Y140.853 E3.74335
G1 X108.605 Y139.592 E3.83494
G1 X106.055 Y138.368 E3.92902
G1 X103.549 Y137.252 E4.02026
G1 X100.985 Y136.196 E4.11249
G1 X98.344 Y135.193 E4.20645
G1 X95.742 Y134.292 E4.29804
G1 X93.38 Y133.554 E4.38034
G1 X92.794 Y133.364 E4.40083
G1 X92.448 Y133.21 E4.41343
G1 X92.141 Y132.987 E4.42605
G1 X91.889 Y132.704 E4.43865
G1 X91.701 Y132.375 E4.45125
G1 X91.627 Y132.176 E4.45832
G1 X91.435 Y131.545 E4.48025
G1 X90.581 Y128.876 E4.57346
G1 X89.677 Y126.302 E4.6642
G1 X88.671 Y123.68 E4.7576
G1 X87.604 Y121.118 E4.84991
G1 X86.466 Y118.587 E4.94221
G1 X85.245 Y116.066 E5.03537
G1 X84.081 Y113.846 E5.11875
G1 X83.812 Y113.318 E5.13846
G1 X83.677 Y112.964 E5.15106
G1 X83.618 Y112.59 E5.16365
G1 X83.639 Y112.211 E5.17627
G1 X83.739 Y111.846 E5.18886
G1 X83.828 Y111.654 E5.1959
G1 X84.151 Y111.048 E5.21874
G1 X85.413 Y108.596 E5.31046
G1 X86.628 Y106.066 E5.40381
G1 X87.757 Y103.532 E5.49608
G1 X88.817 Y100.962 E5.58854
G1 X89.805 Y98.35 E5.68143
G1 X90.707 Y95.753 E5.77286
G1 X91.632 Y92.809 E5.8755
G1 X91.783 Y92.462 E5.88809
G1 X92.003 Y92.154 E5.90068
G0 F6000 X92.357 Y92.362
G1 F1200 X92.619 Y92.155 E5.91178
G1 X92.945 Y92.009 E5.92366
G1 X93.212 Y91.928 E5.93294
G1 X95.909 Y91.076 E6.02702
G1 X98.514 Y90.171 E6.11874
G1 X101.145 Y89.174 E6.21232
G1 X103.694 Y88.123 E6.30402
G1 X106.268 Y86.977 E6.39773
G1 X108.781 Y85.77 E6.49046
G1 X111.189 Y84.514 E6.58079
G1 X111.863 Y84.17 E6.60596
G1 X112.176 Y84.055 E6.61705
G1 X112.508 Y84.017 E6.62816
G1 X112.839 Y84.059 E6.63926
G1 X113.157 Y84.181 E6.65059
G1 X113.722 Y84.482 E6.67188
G1 X116.23 Y85.774 E6.76571
G1 X118.723 Y86.971 E6.8577
G1 X121.294 Y88.117 E6.95132
G1 X123.882 Y89.186 E7.04445
G1 X126.479 Y90.169 E7.13681
G1 X129.089 Y91.076 E7.22871
G1 X131.514 Y91.833 E7.3132
G1 X132.082 Y92.017 E7.33306
G1 X132.386 Y92.157 E7.34419
G1 X132.647 Y92.365 E7.35529
G1 X132.852 Y92.629 E7.36641
G1 X132.99 Y92.941 E7.37776
G1 X133.184 Y93.578 E7.3999
G1 X134.034 Y96.234 E7.49266
G1 X134.966 Y98.885 E7.58612
G1 X135.966 Y101.492 E7.67899
G1 X137.03 Y104.045 E7.77098
G1 X138.184 Y106.61 E7.86453
G1 X139.394 Y109.109 E7.95688
G1 X140.565 Y111.343 E8.04077
G1 X140.831 Y111.865 E8.06025
G1 X140.946 Y112.179 E8.07138
G1 X140.984 Y112.511 E8.08249
G1 X140.942 Y112.842 E8.09359
G1 X140.82 Y113.159 E8.10489
G1 X140.511 Y113.737 E8.12669
G1 X139.242 Y116.199 E8.21881
G1 X138.034 Y118.713 E8.31158
G1 X136.882 Y121.296 E8.40565
G1 X135.813 Y123.884 E8.49878
G1 X134.844 Y126.444 E8.58982
G1 X133.924 Y129.094 E8.68312
G1 X132.987 Y132.072 E8.78695
G1 X132.849 Y132.376 E8.79806
G1 X132.643 Y132.64 E8.8092
G1 X132.381 Y132.847 E8.8203
G1 X132.055 Y132.993 E8.83218
G1 X131.776 Y133.077 E8.84187
G1 X129.124 Y133.914 E8.93437
G1 X126.474 Y134.835 E9.02768
G1 X123.88 Y135.818 E9.11994
G1 X121.291 Y136.885 E9.21308
G1 X118.731 Y138.026 E9.3063
G1 X116.249 Y139.216 E9.39785
G1 X113.838 Y140.474 E9.4883
G1 X113.135 Y140.832 E9.51454
G1 X112.822 Y140.947 E9.52563
G1 X112.49 Y140.984 E9.53674
G1 X112.158 Y140.942 E9.54787
G1 X111.843 Y140.82 E9.5591
G1 X111.257 Y140.509 E9.58117
G1 X108.743 Y139.214 E9.67523
G1 X106.243 Y138.014 E9.76746
G1 X103.68 Y136.873 E9.86077
G1 X101.138 Y135.826 E9.95221
G1 X98.481 Y134.817 E10.04674
G1 X95.866 Y133.911 E10.13879
G1 X93.503 Y133.174 E10.22112
G1 X92.917 Y132.984 E10.2416
G1 X92.614 Y132.844 E10.25271
G1 X92.353 Y132.635 E10.26383
G1 X92.148 Y132.371 E10.27494
G1 X92.01 Y132.06 E10.28626
G1 X91.818 Y131.429 E10.3082
G1 X90.974 Y128.791 E10.40032
G1 X90.043 Y126.139 E10.4938
G1 X89.038 Y123.519 E10.58714
G1 X87.98 Y120.979 E10.67865
G1 X86.821 Y118.401 E10.77266
G1 X85.617 Y115.915 E10.86453
G1 X84.438 Y113.665 E10.94902
G1 X84.169 Y113.137 E10.96873
G1 X84.054 Y112.823 E10.97985
G1 X84.016 Y112.491 E10.99097
G1 X84.058 Y112.16 E11.00206
G1 X84.181 Y111.842 E11.0134
G1 X84.494 Y111.254 E11.03556
G1 X85.789 Y108.739 E11.12965
G1 X86.983 Y106.252 E11.2214
G1 X88.13 Y103.677 E11.31516
G1 X89.205 Y101.071 E11.40892
G1 X90.166 Y98.528 E11.49934
G1 X91.086 Y95.879 E11.59261
G1 X92.013 Y92.929 E11.69546
G1 X92.151 Y92.625 E11.70656
G1 X92.357 Y92.362 E11.71767
G0 F6000 X92.517 Y92.795
G1 F1200 X92.705 Y92.584 E11.72707
G1 X93.06 Y92.392 E11.7405
G1 X93.333 Y92.309 E11.74999
G1 X96.018 Y91.461 E11.84364
G1 X98.674 Y90.538 E11.93716
G1 X101.267 Y89.555 E12.02939
G1 X103.883 Y88.477 E12.1235
G1 X106.413 Y87.35 E12.21562
G1 X108.963 Y86.126 E12.30969
G1 X111.37 Y84.87 E12.4
G1 X112.044 Y84.526 E12.42516
G1 X112.311 Y84.435 E12.43455
G1 X112.593 Y84.421 E12.44394
G1 X112.969 Y84.534 E12.457
G1 X113.551 Y84.844 E12.47893
G1 X116.028 Y86.12 E12.5716
G1 X118.578 Y87.344 E12.66568
G1 X121.11 Y88.474 E12.7579
G1 X123.74 Y89.56 E12.85254
G1 X126.316 Y90.535 E12.94415
G1 X128.969 Y91.457 E13.03756
G1 X131.391 Y92.214 E13.12196
G1 X131.959 Y92.398 E13.14182
G1 X132.213 Y92.522 E13.15122
G1 X132.421 Y92.711 E13.16057
G1 X132.608 Y93.057 E13.17365
G1 X132.807 Y93.713 E13.19645
G1 X133.656 Y96.366 E13.2891
G1 X134.585 Y99.009 E13.38228
G1 X135.595 Y101.641 E13.47604
G1 X136.673 Y104.226 E13.5692
G1 X137.813 Y106.761 E13.66164
G1 X139.032 Y109.279 E13.75469
G1 X140.209 Y111.525 E13.83903
G1 X140.475 Y112.047 E13.85852
G1 X140.566 Y112.314 E13.8679
G1 X140.58 Y112.596 E13.87729
G1 X140.467 Y112.971 E13.89032
G1 X140.159 Y113.549 E13.9121
G1 X138.869 Y116.051 E14.00573
G1 X137.656 Y118.576 E14.0989
G1 X136.527 Y121.108 E14.1911
G1 X135.436 Y123.75 E14.28617
G1 X134.466 Y126.313 E14.37732
G1 X133.538 Y128.985 E14.4714
G1 X132.605 Y131.952 E14.57484
G1 X132.483 Y132.207 E14.58425
G1 X132.295 Y132.417 E14.59362
G1 X131.939 Y132.61 E14.60709
G1 X131.66 Y132.694 E14.61678
G1 X128.988 Y133.538 E14.70998
G1 X126.338 Y134.458 E14.80328
G1 X123.739 Y135.444 E14.89574
G1 X121.124 Y136.521 E14.9898
G1 X118.593 Y137.649 E15.08196
G1 X116.073 Y138.857 E15.17491
G1 X113.657 Y140.117 E15.26554
G1 X112.954 Y140.475 E15.29178
G1 X112.687 Y140.566 E15.30116
G1 X112.405 Y140.579 E15.31055
G1 X112.031 Y140.467 E15.32353
G1 X111.44 Y140.153 E15.34579
G1 X108.951 Y138.871 E15.43891
G1 X106.405 Y137.649 E15.53284
G1 X103.844 Y136.509 E15.62608
G1 X101.254 Y135.442 E15.71925
G1 X98.617 Y134.44 E15.81307
G1 X96.02 Y133.541 E15.90448
G1 X93.627 Y132.793 E15.98787
G1 X93.041 Y132.603 E16.00836
G1 X92.787 Y132.479 E16.01776
G1 X92.578 Y132.289 E16.02715
G1 X92.392 Y131.943 E16.04022
G1 X92.2 Y131.312 E16.06215
G1 X91.351 Y128.658 E16.15483
G1 X90.414 Y125.988 E16.24895
G1 X89.411 Y123.375 E16.34204
G1 X88.334 Y120.79 E16.43518
G1 X87.198 Y118.263 E16.52733
G1 X85.979 Y115.745 E16.62038
G1 X84.794 Y113.483 E16.70531
G1 X84.525 Y112.955 E16.72502
G1 X84.434 Y112.688 E16.7344
G1 X84.421 Y112.406 E16.74379
G1 X84.534 Y112.031 E16.75682
G1 X84.85 Y111.437 E16.77919
G1 X86.132 Y108.947 E16.87234
G1 X87.356 Y106.397 E16.96642
G1 X88.496 Y103.84 E17.05954
G1 X89.566 Y101.247 E17.15284
G1 X90.544 Y98.659 E17.24485
G1 X91.472 Y95.987 E17.33893
G1 X92.395 Y93.049 E17.44136
G1 X92.517 Y92.795 E17.45073
G0 F6000 X92.879 Y92.976
G1 F1200 X93.043 Y92.833 E17.45797
G1 X93.176 Y92.775 E17.46279
G1 X93.453 Y92.691 E17.47242
G1 X96.134 Y91.844 E17.56594
G1 X98.805 Y90.916 E17.65998
G1 X101.419 Y89.925 E17.75296
G1 X104.035 Y88.847 E17.84707
G1 X106.586 Y87.711 E17.93995
G1 X109.136 Y86.487 E18.03403
G1 X111.552 Y85.227 E18.12466
G1 X112.226 Y84.883 E18.14982
G1 X112.435 Y84.82 E18.15708
G1 X112.781 Y84.887 E18.16881
G1 X113.363 Y85.197 E18.19074
G1 X115.855 Y86.481 E18.28398
G1 X118.405 Y87.705 E18.37806
G1 X120.957 Y88.843 E18.47099
G1 X123.599 Y89.934 E18.56606
G1 X126.185 Y90.913 E18.65803
G1 X128.845 Y91.837 E18.75169
G1 X131.268 Y92.594 E18.83612
G1 X131.836 Y92.778 E18.85598
G1 X132.028 Y92.882 E18.86324
G1 X132.225 Y93.174 E18.87496
G1 X132.425 Y93.83 E18.89777
G1 X133.279 Y96.499 E18.99097
G1 X134.211 Y99.152 E19.0845
G1 X135.218 Y101.776 E19.17798
G1 X136.307 Y104.388 E19.2721
G1 X137.453 Y106.935 E19.36499
G1 X138.686 Y109.481 E19.45908
G1 X139.853 Y111.707 E19.54268
G1 X140.119 Y112.229 E19.56216
G1 X140.181 Y112.438 E19.56941
G1 X140.114 Y112.783 E19.5811
G1 X139.806 Y113.361 E19.60289
G1 X138.521 Y115.853 E19.69614
G1 X137.296 Y118.403 E19.79023
G1 X136.158 Y120.955 E19.88317
G1 X135.067 Y123.597 E19.97824
G1 X134.088 Y126.182 E20.07018
G1 X133.16 Y128.854 E20.16426
G1 X132.223 Y131.832 E20.26809
G1 X132.121 Y132.025 E20.27535
G1 X131.957 Y132.168 E20.28259
G1 X131.824 Y132.227 E20.28743
G1 X131.545 Y132.311 E20.29712
G1 X128.872 Y133.155 E20.39035
G1 X126.199 Y134.083 E20.48446
G1 X123.571 Y135.08 E20.57795
G1 X120.971 Y136.151 E20.67147
G1 X118.405 Y137.295 E20.76492
G1 X115.888 Y138.502 E20.85776
G1 X113.475 Y139.761 E20.94828
G1 X112.772 Y140.119 E20.97452
G1 X112.563 Y140.181 E20.98177
G1 X112.218 Y140.114 E20.99346
G1 X111.616 Y139.794 E21.01614
G1 X109.124 Y138.51 E21.10938
G1 X106.574 Y137.286 E21.20346
G1 X104.02 Y136.149 E21.29644
G1 X101.406 Y135.072 E21.39047
G1 X98.75 Y134.063 E21.48497
G1 X96.139 Y133.159 E21.57687
G1 X93.75 Y132.413 E21.66011
G1 X93.164 Y132.223 E21.6806
G1 X92.972 Y132.119 E21.68786
G1 X92.775 Y131.827 E21.69958
G1 X92.583 Y131.196 E21.72152
G1 X91.729 Y128.526 E21.81475
G1 X90.792 Y125.856 E21.90887
G1 X89.791 Y123.248 E22.00178
G1 X88.703 Y120.636 E22.09589
G1 X87.558 Y118.089 E22.18877
G1 X86.325 Y115.543 E22.28286
G1 X85.15 Y113.301 E22.36705
G1 X84.881 Y112.773 E22.38676
G1 X84.819 Y112.564 E22.39401
G1 X84.836 Y112.347 E22.40125
G1 X84.887 Y112.219 E22.40583
G1 X85.21 Y111.613 E22.42867
G1 X86.493 Y109.12 E22.52192
G1 X87.717 Y106.57 E22.616
G1 X88.854 Y104.018 E22.70893
G1 X89.944 Y101.376 E22.80398
G1 X90.922 Y98.79 E22.89594
G1 X91.85 Y96.118 E22.99002
G1 X92.777 Y93.169 E23.09283
G1 X92.879 Y92.976 E23.10009
G0 F6000 X93.158 Y93.289
G1 F1200 X93.291 Y93.158 E23.1063
G1 X93.574 Y93.072 E23.11614
G1 X96.271 Y92.22 E23.21021
G1 X98.936 Y91.294 E23.30405
G1 X101.577 Y90.293 E23.39799
G1 X104.183 Y89.219 E23.49174
G1 X106.765 Y88.069 E23.58575
G1 X109.309 Y86.848 E23.6796
G1 X111.734 Y85.583 E23.77057
G1 X112.408 Y85.239 E23.79574
G1 X112.593 Y85.24 E23.80189
G1 X113.173 Y85.549 E23.82375
G1 X115.687 Y86.844 E23.91781
G1 X118.226 Y88.063 E24.01148
G1 X120.809 Y89.215 E24.10555
G1 X123.441 Y90.302 E24.20026
G1 X126.054 Y91.291 E24.29319
G1 X128.719 Y92.217 E24.38703
G1 X131.145 Y92.975 E24.47156
G1 X131.713 Y93.159 E24.49142
G1 X131.842 Y93.291 E24.49756
G1 X132.041 Y93.944 E24.52027
G1 X132.902 Y96.632 E24.61414
G1 X133.838 Y99.295 E24.70803
G1 X134.849 Y101.93 E24.8019
G1 X135.937 Y104.542 E24.89601
G1 X137.093 Y107.11 E24.98967
G1 X138.323 Y109.65 E25.08354
G1 X139.496 Y111.888 E25.16758
G1 X139.762 Y112.41 E25.18707
G1 X139.761 Y112.595 E25.19322
G1 X139.453 Y113.173 E25.215
G1 X138.158 Y115.685 E25.309
G1 X136.935 Y118.23 E25.40291
G1 X135.786 Y120.807 E25.49676
G1 X134.697 Y123.444 E25.59165
G1 X133.708 Y126.056 E25.68455
G1 X132.782 Y128.723 E25.77844
G1 X131.842 Y131.712 E25.88266
G1 X131.709 Y131.844 E25.88889
G1 X131.43 Y131.928 E25.89858
G1 X128.735 Y132.779 E25.99258
G1 X126.068 Y133.705 E26.08648
G1 X123.429 Y134.706 E26.18036
G1 X120.824 Y135.779 E26.27406
G1 X118.242 Y136.93 E26.36809
G1 X115.703 Y138.147 E26.46173
G1 X113.294 Y139.404 E26.55211
G1 X112.591 Y139.762 E26.57835
G1 X112.406 Y139.761 E26.5845
G1 X111.804 Y139.441 E26.60718
G1 X109.292 Y138.147 E26.70116
G1 X106.753 Y136.928 E26.79484
G1 X104.168 Y135.777 E26.88895
G1 X101.559 Y134.702 E26.9828
G1 X98.892 Y133.689 E27.07769
G1 X96.258 Y132.777 E27.1704
G1 X93.873 Y132.032 E27.25351
G1 X93.287 Y131.842 E27.274
G1 X93.158 Y131.71 E27.28014
G1 X92.966 Y131.079 E27.30207
G1 X92.106 Y128.393 E27.39588
G1 X91.169 Y125.723 E27.48999
G1 X90.158 Y123.089 E27.58383
G1 X89.073 Y120.482 E27.67775
G1 X87.916 Y117.909 E27.77158
G1 X86.685 Y115.368 E27.86549
G1 X85.507 Y113.12 E27.9499
G1 X85.238 Y112.592 E27.96961
G1 X85.24 Y112.407 E27.97577
G1 X85.561 Y111.803 E27.99852
G1 X86.856 Y109.288 E28.0926
G1 X88.078 Y106.743 E28.1865
G1 X89.226 Y104.166 E28.28033
G1 X90.314 Y101.529 E28.37521
G1 X91.302 Y98.916 E28.46813
G1 X92.228 Y96.249 E28.56203
G1 X93.158 Y93.289 E28.66522
G1 F2700 E26.66522
;MESH:star.stl
G0 F6000 X92.676 Y93.293
G0 X109.57 Y107.841
G0 X109.596 Y105.49
G0 X112.5 Y103.183
G0 X115.213 Y105.949
G0 X119.088 Y105.912
G0 X119.216 Y109.67
;TYPE:WALL-OUTER
G1 F2700 E28.66522
G1 F1200 X119.262 Y105.738 E28.79601
G1 X115.331 Y105.783 E28.92676
G1 X115.282 Y105.784 E28.92839
G1 X115.25 Y105.751 E28.92992
G1 X112.5 Y102.937 E29.06079
G1 X109.751 Y105.75 E29.19161
G1 X109.718 Y105.784 E29.19318
G1 X109.67 Y105.784 E29.19478
G1 X105.738 Y105.738 E29.32557
G1 X105.783 Y109.669 E29.45632
G1 X105.784 Y109.718 E29.45795
G1 X105.751 Y109.75 E29.45948
G1 X102.936 Y112.5 E29.59037
G1 X105.75 Y115.249 E29.72121
G1 X105.784 Y115.283 E29.72281
G1 X105.784 Y115.33 E29.72437
G1 X105.738 Y119.262 E29.85516
G1 X109.669 Y119.218 E29.98591
G1 X109.718 Y119.217 E29.98754
G1 X109.75 Y119.249 E29.98905
G1 X112.5 Y122.065 E30.11996
G1 X115.249 Y119.25 E30.25083
G1 X115.282 Y119.217 E30.25238
G1 X115.33 Y119.217 E30.25398
G1 X119.262 Y119.262 E30.38476
G1 X119.217 Y115.331 E30.51552
G1 X119.216 Y115.283 E30.51712
G1 X119.249 Y115.25 E30.51867
G1 X122.064 Y112.5 E30.64956
G1 X119.25 Y109.751 E30.7804
